jackie-illiilli/BorylXAT-DB/output/jupyter-notebook/qh_model_cv_predictions.csv
key,y_original,y_qharm,delta_qharm_minus_original,pred_original_target_original_features,pred_qharm_target_original_features,pred_qharm_target_qharm_rxn_feature
B_00388_LB_00000_Cl_00500,15.69012923,14.545776492699032,-1.1443527373009683,12.56500239487341,11.28319467332168,11.199516318595837
B_00388_LB_00001_Cl_00466,9.890297325,9.404658515445162,-0.48563880955483896,8.784705364377054,7.555595249777166,7.810108679823901
B_00388_LB_00001_Cl_00474,12.49376972,8.268202769713648,-4.2255669502863515,12.541085899825239,9.291430211680943,9.04335208819979
B_00388_LB_00001_Cl_00475,14.91429701,11.353406828765914,-3.560890181234086,14.15192496986107,10.805295466559798,10.597648792105318
B_00388_LB_00001_Cl_00476,14.31253643,12.129193388121315,-2.1833430418786843,13.91182672055313,11.425797607331656,11.27398962823879
B_00388_LB_00001_Cl_00477,13.04671018,10.896756214631324,-2.1499539653686757,13.642174572706828,12.067490302849757,11.661602054337736
B_00388_LB_00001_Cl_00478,12.18955145,9.960599770742968,-2.2289516792570314,12.435467395700408,10.16919493445954,10.080266091507458
B_00388_LB_00001_Cl_00481,12.23456516,10.390775192635196,-1.8437899673648044,12.20806615885927,10.9118426371374,10.442996728896155
B_00388_LB_00001_Cl_00484,13.0439931,10.25049085560519,-2.7935022443948103,13.281420502382037,10.68648340431325,10.624138700223899
B_00388_LB_00001_Cl_00486,17.12485213,14.03901143208865,-3.085840697911351,16.448316243503562,13.763099725198066,13.639587902425996
B_00388_LB_00001_Cl_00487,14.82288971,11.847228057752698,-2.975661652247302,15.509711272540088,11.828281506707041,11.487303852140709
B_00388_LB_00001_Cl_00488,12.8162357,9.9724637014434,-2.8437719985565995,12.510287571906835,10.519520278161238,10.47396244111331
B_00388_LB_00001_Cl_00490,11.92028493,8.98494135390502,-2.9353435760949793,11.762253372157556,9.50132937946013,9.309469692452778
B_00388_LB_00001_Cl_00491,9.49335965,7.553270798794589,-1.9400888512054113,9.147421794463119,7.380922834918936,7.6930743380542435
B_00388_LB_00001_Cl_00493,14.27420999,11.07831158965721,-3.1958984003427897,13.758241567202527,11.170611516053448,11.065035259250333
B_00388_LB_00001_Cl_00495,13.80387928,11.302211412058174,-2.5016678679418263,12.844836246140602,10.239599607726,10.326679733244436
B_00388_LB_00001_Cl_00497,14.4296888,11.765278377826776,-2.6644104221732228,13.85280072320967,11.625073350256075,11.591797448989237
B_00388_LB_00001_Cl_00498,13.34374358,11.481938296391869,-1.8618052836081311,12.420482638059344,9.994250528263738,10.137686797083987
B_00388_LB_00001_Cl_00501,12.92455098,10.575497639045947,-2.349053340954052,12.89788399898395,10.126046008577042,10.238171261388024
B_00388_LB_00001_Cl_00506,13.15237804,10.521973152742804,-2.630404887257196,12.87401466660675,10.879086681503384,10.677213189397854
B_00388_LB_00001_Cl_00507,13.23839574,11.027666817747305,-2.210728922252695,13.012012779927344,10.70946565973629,10.360513502683187
B_00388_LB_00001_Cl_00508,15.00032475,12.011762361801347,-2.9885623881986536,13.792314807045024,11.429109979787771,11.710537127137878
B_00388_LB_00001_Cl_00517,12.85733946,11.041669514609747,-1.815669945390253,13.446242103543554,10.872759459260244,10.644354827108113
B_00388_LB_00001_Cl_00519,5.8188075,3.733998260436063,-2.084809239563937,8.53226856500231,5.613880391666342,6.531281804824401
B_00388_LB_00001_Cl_00525,13.47356077,11.138495831850276,-2.335064938149724,12.340129292940395,10.953275371429344,10.95482280543253
B_00388_LB_00001_Cl_00529,12.22141465,10.342655742831983,-1.8787589071680166,12.546383574675149,10.093164554879543,10.154463464405833
B_00388_LB_00001_Cl_00550,12.17669648,9.301139342467437,-2.8755571375325637,12.451128482258515,9.57244240024928,9.568960296414911
B_00388_LB_00001_Cl_00552,10.10568482,9.098366713933494,-1.0073181060665064,9.974543985979794,8.64273835709432,8.336457610737238
B_00388_LB_00001_Cl_00553,13.45282253,10.71420364649549,-2.738618883504511,13.591506472762557,11.22663111359563,11.421060020397784
B_00388_LB_00001_Cl_00554,12.63407873,9.92307970115839,-2.710999028841611,12.785706165627534,10.088483669356451,9.839641781641058
B_00388_LB_00001_Cl_00555,13.69536885,10.780868534394596,-2.9145003156054035,13.447103475725802,10.637575115720175,10.67390395661621
B_00388_LB_00001_Cl_00557,12.35035774,10.601381049812852,-1.7489766901871473,13.229517948497616,11.488608787912144,11.398302409084511
B_00388_LB_00001_Cl_00558,14.51878815,11.220176121512024,-3.2986120284879767,13.715092001486925,10.72826976826062,10.624296284698723
B_00388_LB_00001_Cl_00560,13.8705681,11.175202489966354,-2.6953656100336456,12.943915503793436,10.134308690684499,9.876913717759226
B_00388_LB_00001_Cl_00562,12.92489862,10.256908485715597,-2.6679901342844037,12.90859020267784,10.629631561222055,10.805548535931997
B_00388_LB_00001_Cl_00566,10.52209068,9.331823401986474,-1.1902672780135255,10.556198895623666,9.696166941882932,9.368717584434457
B_00388_LB_00001_Cl_00573,12.20948963,10.72893093306958,-1.4805586969304194,12.80093514419965,10.918592079310105,10.799911499750127
B_00388_LB_00001_Cl_00582,11.53621351,10.348976677437449,-1.1872368325625509,12.528890637798796,10.429508116520111,10.071616786923427
B_00388_LB_00001_Cl_00583,12.99010967,11.321134207574884,-1.6689754624251165,13.402923411249326,11.753992477368355,11.701173872923416
B_00388_LB_00001_Cl_00596,11.72988887,9.734997409226128,-1.9948914607738715,11.725787001542235,9.80771209085453,9.567546574471699
B_00388_LB_00001_Cl_00606,12.48645496,9.855491309499756,-2.6309636505002434,12.93840549034317,9.523435170593451,9.459833430484599
B_00388_LB_00001_Cl_00610,9.500242697,8.909173414458307,-0.5910692825416923,10.358865071392447,8.010028572732196,7.943891116957045
B_00388_LB_00002_Cl_00478,12.04923618,10.541598166453436,-1.507638013546563,11.953406370020993,9.525287555095117,9.918954005111525
B_00388_LB_00002_Cl_00490,10.70212545,9.291650481757744,-1.4104749682422568,12.167433603058251,9.606754665680352,9.521619474147524
B_00388_LB_00002_Cl_00497,13.76916975,11.413576115688697,-2.355593634311303,13.125775850945573,11.138835759687048,10.960555310468418
B_00388_LB_00002_Cl_00498,13.1206485,10.429059519085293,-2.691588980914707,11.896862094874908,9.150444318266631,9.387994580641944
B_00388_LB_00002_Cl_00501,12.12289212,8.048419053033545,-4.074473066966455,12.569553534214133,10.640260406645762,10.576305225910549
B_00388_LB_00002_Cl_00506,11.90444055,10.830739213353404,-1.0737013366465966,12.435417658237462,10.354431596541364,10.515968006280787
B_00388_LB_00002_Cl_00507,11.9897429,10.95943829193831,-1.030304608061689,12.4369183464056,10.366207228940201,10.13376330403247
B_00388_LB_00002_Cl_00553,13.33590108,10.849329387279454,-2.4865716927205455,13.21368572239859,11.312158784363106,11.447780260568901
B_00388_LB_00002_Cl_00554,12.01482407,9.03835589737353,-2.97646817262647,11.954867586286476,9.394124442264275,9.499611390956492
B_00388_LB_00002_Cl_00555,13.39908907,10.954189045930333,-2.4449000240696677,12.489019379036389,9.722442138273392,10.199531797783322
B_00388_LB_00002_Cl_00573,11.9307077,10.691088330593333,-1.2396193694066664,12.007721652153435,11.132707172095742,10.966711741336379
B_00388_LB_00002_Cl_00606,11.52608942,10.388959844974249,-1.1371295750257513,12.648820606105637,9.084238259556802,9.06957687107123
B_00388_LB_00002_Cl_00609,8.7829167,7.090441430954474,-1.6924752690455254,8.448777658959028,7.133221472638294,6.476956715363276
B_00388_LB_00003_Cl_00500,6.6341308,7.021450742809672,0.38731994280967186,11.884923359223652,11.766728170058087,11.644484409839734
B_00388_LB_00006_Cl_00500,13.24771725,13.764209164752252,0.5164919147522511,12.834368017563909,11.154441134386888,10.965417498573093
B_00388_LB_00013_Cl_00488,12.9494665,10.326615182991516,-2.622851317008484,13.156415489710648,10.77359040433289,10.598938839075217
B_00388_LB_00013_Cl_00500,13.79723783,11.755152652530452,-2.0420851774695485,14.218496496050888,13.133036010161417,13.042410164248817
B_00388_LB_00014_Cl_00474,13.8800741,9.90720365528356,-3.97287044471644,12.522538121762535,9.41627675340236,9.361863274272308
B_00388_LB_00015_Cl_00475,14.12563995,10.847811672076112,-3.277828277923888,14.814587162074211,11.40862756689416,11.281655683386784
B_00388_LB_00015_Cl_00488,13.11749845,10.975822288162547,-2.1416761618374522,12.670937446936714,10.723256136802036,10.829995062213932
B_00388_LB_00016_Cl_00476,13.43839003,10.907087236013258,-2.531302793986743,13.638954888116388,11.56422466651949,11.758749889755013
B_00388_LB_00017_Cl_00477,14.29080422,12.814815876019704,-1.4759883439802959,14.195869344003352,11.818671077892034,11.730561980086504
B_00388_LB_00018_Cl_00478,11.25570595,9.513325919172416,-1.742380030827583,11.66339961371726,10.046083114271013,10.345757588101687
B_00388_LB_00018_Cl_00552,8.352570925,8.592725578678266,0.24015465367826572,9.122069145818097,8.346195254950047,7.8691699013198
B_00388_LB_00019_Cl_00488,9.436351275,8.658464251628912,-0.777887023371088,10.911565981278306,9.421612636452867,9.837570326391468
B_00388_LB_00021_Cl_00481,10.2337971,9.119487448216676,-1.1143096517833246,11.778534215111888,9.98786333659178,10.10341150703579
B_00388_LB_00021_Cl_00488,11.0974128,8.835527579175505,-2.261885220824496,11.377872150641357,9.02757537110005,8.616208054185368
B_00388_LB_00022_Cl_00525,14.2693431,12.022554567806472,-2.246788532193529,12.748633019683314,11.375030020448548,11.005384675589628
B_00388_LB_00024_Cl_00488,13.05848208,10.459702482162225,-2.5987795978377743,12.681957089184998,10.71884246568634,10.770750746274786
B_00388_LB_00024_Cl_00517,14.04576547,11.592922634996736,-2.4528428350032634,13.038493596607688,10.92941892720035,11.072840533809043
B_00388_LB_00025_Cl_00484,11.85405857,9.505952254602272,-2.348106315397727,12.583333059882253,10.107806348109643,10.151815489427769
B_00388_LB_00025_Cl_00520,10.5561062,9.14145916987414,-1.4146470301258596,12.02657324332324,9.973431284482412,10.159773119949893
B_00388_LB_00027_Cl_00486,25.00222922,23.64665061387563,-1.3555786061243715,26.935125322822067,23.894878605079214,24.350876136348347
B_00388_LB_00027_Cl_00488,23.9458769,20.52105977968706,-3.4248171203129374,22.879806166689995,22.798228026098393,22.31182946813002
B_00388_LB_00027_Cl_00500,21.52482502,21.549543124958056,0.02471810495805471,17.9113014933805,17.54479812500945,18.093236344616074
B_00388_LB_00027_Cl_00517,20.67565437,19.28071205830305,-1.3949423116969513,19.22684437715289,18.88161437698902,18.57980484130173
B_00388_LB_00027_Cl_00525,21.37716424,20.45467716041357,-0.9224870795864284,18.830131648130433,18.846789208924196,19.297693603231423
B_00388_LB_00028_Cl_00487,14.62446229,10.532498696294809,-4.0919635937051915,15.393793051887531,11.833625086404211,11.764412370751426
B_00388_LB_00029_Cl_00488,12.67201737,10.7365500006163,-1.9354673693837015,12.24112906574006,10.313085216450538,10.883047647144213
B_00388_LB_00030_Cl_00488,13.6505346,12.299884212542509,-1.3506503874574918,12.581192343419957,10.19968215232563,9.269977673005645
B_00388_LB_00030_Cl_00525,13.61324855,12.62786339424354,-0.9853851557564592,12.423557731570046,10.034347057404112,10.471093153011667
B_00388_LB_00032_Cl_00488,12.40824775,10.48815460996746,-1.9200931400325398,12.023925690287182,10.040721352155794,10.177115769936002
B_00388_LB_00033_Cl_00486,16.43170872,14.523789398078115,-1.9079193219218844,16.176008445731604,13.084670982022887,13.215266918659603
B_00388_LB_00033_Cl_00488,12.5003773,10.20074600701677,-2.2996312929832303,11.708967085840039,10.092969110977467,10.010374042676528
B_00388_LB_00033_Cl_00583,12.9342308,11.7251826866038,-1.2090481133962,12.799670778846853,11.455363022215394,12.112553834653834
B_00388_LB_00042_Cl_00458,8.4410547,6.51318048473588,-1.9278742152641204,4.651589539881357,2.558210798850313,2.672147768892062
B_00388_LB_00046_Cl_00462,35.6056301,30.140244340815418,-5.465385759184581,33.32444221825561,29.262143113251945,28.908546483838204
B_00388_LB_00051_Cl_00445,3.09926015,1.7046545888863454,-1.3946055611136547,3.7637535815920025,2.1205307086461076,2.0939440541712155
B_00388_LB_00051_Cl_00446,4.458167875,1.6421145483733706,-2.8160533266266294,5.230313651068316,2.856901324355201,2.837496611976066
B_00388_LB_00051_Cl_00447,4.415196675,3.350511677614482,-1.064684997385518,5.3192356530606855,3.560828777992196,3.5947077428590894
B_00388_LB_00051_Cl_00454,4.675019325,3.047840905983377,-1.627178419016623,6.485108892273788,3.3326833525641035,3.446358736726726
B_00388_LB_00051_Cl_00455,1.943398875,0.0924507672753509,-1.850948107724649,3.2878693529740133,3.162892260901147,2.7641845198493566
B_00388_LB_00051_Cl_00462,9.738404675,5.587091888209861,-4.151312786790139,10.718366202743496,7.3602384758318635,7.311668946172638
B_00388_LB_00051_Cl_00476,13.96070785,10.721569218733109,-3.2391386312668917,13.851443567958736,10.56654001523019,10.798379400735138
B_00388_LB_00051_Cl_00487,16.1161076,12.234558220942324,-3.8815493790576756,16.675500425615187,12.219545987065805,12.36179779703186
B_00388_LB_00051_Cl_00491,7.86384255,5.242146975703138,-2.6216955742968624,8.723335200088366,4.273040685161469,4.2122576700660765
B_00388_LB_00051_Cl_00495,15.0614056,10.66667018304063,-4.394735416959371,14.073869250796141,9.314937321103514,9.845191053588364
B_00388_LB_00051_Cl_00501,13.7413715,9.935768814070638,-3.8056026859293617,13.860097467739369,9.21902061845228,9.274345712103898
B_00388_LB_00051_Cl_00505,11.07068757,7.37978053425804,-3.6909070357419607,9.607976986749618,5.006931133297494,5.3331309611872655
B_00388_LB_00051_Cl_00506,13.75955018,8.280529665744222,-5.479020514255778,13.532473097604836,9.215502883961655,9.56800703843428
B_00388_LB_00051_Cl_00507,14.158157,9.004305514272193,-5.153851485727806,13.198478017659909,9.447063124814836,9.614985380891206
B_00388_LB_00051_Cl_00514,5.786861475,4.753005007627005,-1.0338564673729955,7.401573990216486,4.800229340708498,4.167716035756513
B_00388_LB_00051_Cl_00515,12.00298943,7.595375283049151,-4.4076141469508485,12.100206029634835,7.733311439305545,7.868333428933156
B_00388_LB_00051_Cl_00526,4.942622975,1.950310985078875,-2.992311989921125,7.144641580061524,3.880766023013111,3.6434634369676164
B_00388_LB_00051_Cl_00532,7.169313,2.904303656236113,-4.265009343763887,5.582422721561477,2.6268005028734507,2.2585313694981917
B_00388_LB_00051_Cl_00539,5.537292175,4.1071220044285,-1.4301701705715004,10.236850688674226,7.491875603775063,7.85176374769595
B_00388_LB_00051_Cl_00542,4.639854225,0.9691789174874206,-3.670675307512579,3.801493161180087,1.8164866406711813,1.639235179578213
B_00388_LB_00051_Cl_00543,4.4146131,3.730456616655765,-0.6841564833442355,5.373920784048806,2.797562319549167,3.1942700784860136
B_00388_LB_00051_Cl_00544,3.841862475,2.4220816395712017,-1.4197808354287984,4.909365360943411,2.1181729388022585,2.144707940545633
B_00388_LB_00051_Cl_00545,3.4937694,2.036999009916165,-1.4567703900838351,3.7464627727736257,1.8667221803474447,2.0874538440989117
B_00388_LB_00051_Cl_00546,5.515266925,2.795994822012454,-2.7192721029875457,5.815971366935324,3.017161199068024,3.6640423858866544
B_00388_LB_00051_Cl_00548,5.385750925,1.503167245465548,-3.882583679534452,5.671366171282353,2.6243987795815347,2.7844409005717026
B_00388_LB_00051_Cl_00550,13.52298895,9.61911440101769,-3.9038745489823103,13.11964617769099,9.285096708915448,8.777037970718625
B_00388_LB_00051_Cl_00551,10.2221758,5.094690120936657,-5.127485679063343,10.031355042796253,6.359665981160193,5.888118953775301
B_00388_LB_00051_Cl_00552,10.71955113,5.770985716552535,-4.948565413447464,9.880247923701777,6.340932274012179,6.008446377877519
B_00388_LB_00051_Cl_00554,14.23174392,8.372124609892694,-5.8596193101073055,14.215951591837285,9.78594359050353,9.785075705916729
B_00388_LB_00051_Cl_00555,14.846901,9.033547159784504,-5.8133538402154965,14.483320792027357,9.856913225321914,9.566894210810357
B_00388_LB_00051_Cl_00556,10.01410935,6.180432524021827,-3.8336768259781726,8.289036075669058,5.143038425590589,5.312222120781838
B_00388_LB_00051_Cl_00558,15.62124855,10.164858730135556,-5.4563898198644445,14.291925005330999,9.651146742328152,9.74253761307825
B_00388_LB_00051_Cl_00560,13.82193622,9.50637211756434,-4.31556410243566,14.120821303991617,9.08094613373919,9.145904208602566
B_00388_LB_00051_Cl_00561,10.42329582,6.216406405426127,-4.206889414573872,9.85642638346053,6.055727271911474,5.845261355629619
B_00388_LB_00051_Cl_00563,9.0614514,4.4066277460564685,-4.654823653943531,9.52983806307503,5.386042901267002,4.273182216618025
B_00388_LB_00051_Cl_00578,8.55454435,4.535809195047336,-4.018735154952664,9.375613403663717,5.713872920257483,5.950121226292781
B_00388_LB_00051_Cl_00579,10.3320385,7.097756700236086,-3.234281799763913,10.28536729426245,7.131971364537609,7.719377172972356
B_00388_LB_00051_Cl_00584,9.9258954,6.9076457178107225,-3.0182496821892775,10.318513854396816,7.52305497701112,7.330792077191385
B_00388_LB_00051_Cl_00585,10.09059533,5.834842750190967,-4.255752579809032,8.622968395209222,5.314750297335808,5.2648230097209066
B_00388_LB_00051_Cl_00590,5.94630295,2.256732184153336,-3.6895707658466637,5.333238319119809,2.631890671757244,2.3469470822504217
B_00388_LB_00051_Cl_00598,3.4959029,2.55796218929369,-0.93794071070631,2.8528106169033656,1.7238801725451047,1.5238589905819993
B_00388_LB_00051_Cl_00599,3.948261375,1.8238154165239848,-2.124445958476015,5.555708038033034,2.657172972310244,3.0658027783404815
B_00388_LB_00051_Cl_00601,5.207340125,3.720904123405856,-1.4864360015941438,6.082944646818261,4.752750624189948,3.9831539846682915
B_00388_LB_00051_Cl_00602,2.57522235,1.5727542274561472,-1.002468122543853,2.613482556406762,1.7505511949260057,2.2020614219013677
B_00388_LB_00051_Cl_00604,7.9991943,3.415408023957053,-4.583786276042947,7.995404699297508,3.482924033161547,3.923252090113502
B_00388_LB_00051_Cl_00608,13.700082,7.674277639834408,-6.025804360165592,13.066242144899288,8.333942754445907,7.923687331761613
B_00388_LB_00051_Cl_00610,10.2368091,4.894555859259789,-5.342253240740211,9.15230699182271,5.142567885823734,5.372775930501973
B_00388_LB_00051_Cl_00616,9.385360625,4.627186359684599,-4.758174265315402,8.497004712734583,4.53248720698231,4.6140801698160825
B_00388_LB_00051_Cl_00619,4.033319,3.442738107631537,-0.5905808923684628,2.873857914416096,1.059375703479251,0.9689968363189863
B_00388_LB_00051_Cl_00621,4.8369708,3.921177419479687,-0.9157933805203124,4.086158752425224,0.7397725910796797,0.8253719108829358
B_00388_LB_00051_Cl_00622,3.6478834,1.0280696858550589,-2.619813714144941,2.9289188844610905,0.9476504421007323,1.0874431943697633
B_00388_LB_00053_Cl_00488,13.28593828,10.780556163253635,-2.5053821167463646,12.815966676412334,10.42223027625964,10.052401324084538
B_00388_LB_00054_Cl_00504,13.5778199,10.503987177300676,-3.073832722699324,13.337358244120406,10.684071024071478,11.304980820181154
B_00388_LB_00055_Cl_00557,14.19825425,11.788965270554698,-2.409288979445302,14.035062038708858,12.296194847616437,12.56856011660662
B_00388_LB_00056_Cl_00558,14.25342405,11.14777035660969,-3.105653693390309,14.213049149348553,11.242116763062139,10.977521917026941
B_00388_LB_00058_Cl_00517,13.99569098,11.937554272561512,-2.0581367074384875,13.694866540173221,11.140534400200725,10.954923129322918
B_00388_LB_00063_Cl_00519,6.5786096,5.139104620844156,-1.4395049791558439,7.322680724593921,4.773186237726559,5.732217749100597
B_00388_LB_00064_Cl_00488,12.2543722,10.403848270795724,-1.850523929204277,12.503398489301517,10.33626502470926,9.939385617366177
B_00388_LB_00068_Cl_00488,10.74624498,8.713053980428882,-2.0331909995711186,12.439161355583918,10.276490566586318,10.154315446780227
B_00388_LB_00068_Cl_00525,11.28027885,9.152281256100514,-2.1279975938994866,10.848733363213679,10.112806797840296,10.215081594430938
B_00388_LB_00069_Cl_00462,13.64447295,10.279693355669892,-3.364779594330109,14.308022952359543,11.347832806177351,11.228428630471626
B_00388_LB_00069_Cl_00486,23.3727435,20.52453162055391,-2.8482118794460902,23.088139851259342,20.14677118353496,20.114891363597238
B_00388_LB_00069_Cl_00488,19.62622338,16.333117753963496,-3.2931056260365033,19.19869366909326,15.748976619190158,16.302699465574648
B_00388_LB_00069_Cl_00489,10.60469352,8.642354646643883,-1.9623388733561171,10.382354422825001,8.025176308963935,8.306778266631955
B_00388_LB_00069_Cl_00490,17.62119773,15.267125801878326,-2.354071928121673,18.112631380085904,15.390671720756574,15.341799328718087
B_00388_LB_00069_Cl_00500,16.33735155,14.538167152730413,-1.7991843972695882,16.885151816162086,14.95343463439196,15.16722737701102
B_00388_LB_00069_Cl_00560,18.71959882,15.215104385193303,-3.5044944348066984,17.9942291951233,14.831259751074652,14.628109733316082
B_00388_LB_00070_Cl_00462,18.69512005,14.650160153850212,-4.044959896149788,18.409830983182346,14.155640585049875,14.54642571706968
B_00388_LB_00070_Cl_00526,15.0943619,12.60535787013277,-2.48900402986723,13.575993596275236,11.779489577719058,11.76572848071738
B_00388_LB_00070_Cl_00527,13.89114948,10.585493137599682,-3.305656342400317,14.616907283339174,11.842121709109257,11.912110451387072
B_00388_LB_00070_Cl_00558,22.63492273,18.945020475570164,-3.6899022544298354,22.9344915205898,18.946136559152404,17.913707122615687
B_00388_LB_00070_Cl_00560,22.01530413,18.604084036424247,-3.4112200935757535,21.465784096077588,17.495500080546403,17.01324676641668
B_00388_LB_00070_Cl_00561,18.52890158,14.486261238657896,-4.0426403413421035,17.200388127124736,14.120690204838496,14.334515420289158
B_00388_LB_00070_Cl_00562,20.53092777,17.378267441416437,-3.152660328583565,21.34904613760116,17.478136970307936,17.322581906599215
B_00388_LB_00070_Cl_00569,14.58141203,10.455844164537616,-4.125567865462383,14.151690332691157,11.2323973204291,11.39509248445459
B_00388_LB_00070_Cl_00601,13.3769948,10.736791578793287,-2.640203221206713,13.374974822295854,11.32066587243941,11.183173108988427
B_00388_LB_00070_Cl_00617,17.43270927,14.679444023326502,-2.7532652466734984,16.749630880669795,14.190816625906029,14.13416932349085
B_00388_LB_00071_Cl_00462,19.12825192,14.900013586080147,-4.228238333919853,19.869728222492064,15.004949267952544,15.749173973380804
B_00388_LB_00071_Cl_00488,26.2953875,22.10175800173749,-4.19362949826251,23.867914448074856,18.94275502045626,19.688950043376142
B_00388_LB_00071_Cl_00490,25.61850325,19.88328061095133,-5.7352226390486685,25.09777964715567,20.405876846809647,20.81328738815217
B_00388_LB_00071_Cl_00491,14.3937456,9.666677203797198,-4.727068396202803,13.525473234312607,9.895035513133443,9.281077330455293
B_00388_LB_00071_Cl_00528,16.47726522,10.789824923989997,-5.687440296010003,17.26034530783716,12.49037773241414,12.641890402823904
B_00388_LB_00072_Cl_00462,15.30542152,11.795824027669449,-3.509597492330551,14.465730198790485,11.582585328715242,11.329900661740927
B_00388_LB_00072_Cl_00490,20.1163699,15.84961933153608,-4.2667505684639195,18.335485702802977,15.78661267864047,15.55206897107552
B_00388_LB_00072_Cl_00493,21.19481023,16.83867039483915,-4.356139835160853,20.236796825007467,16.027420557255514,16.44236972488711
B_00388_LB_00072_Cl_00519,12.5135046,9.46728003780088,-3.0462245621991197,13.726057703494465,9.39184725616191,9.707627219287875
B_00388_LB_00073_Cl_00462,14.50108575,12.431618560235336,-2.069467189764664,15.110169570446956,12.106478859846167,12.489141348336291
B_00388_LB_00074_Cl_00462,21.41457955,17.746245673053572,-3.668333876946427,20.797252672641505,16.820299615532193,16.818930888569806
B_00388_LB_00074_Cl_00494,18.849347,15.38664898358363,-3.462698016416372,19.10427588510224,15.674750815531695,15.247835780799218
B_00388_LB_00074_Cl_00499,20.58522535,16.591684762010527,-3.993540587989475,19.55326718447702,15.412776773482472,15.40798532535117
B_00388_LB_00074_Cl_00526,14.6499664,12.451642891397883,-2.198323508602117,15.298021025609529,12.633305594917529,12.501248392029966
B_00388_LB_00074_Cl_00531,15.1438089,11.734634251629531,-3.4091746483704686,15.815096264564174,11.262646237396144,10.96813712960677
B_00388_LB_00074_Cl_00562,22.58272728,19.323150590868284,-3.259576689131716,23.5830847149974,19.463717652470066,19.71761975101667
B_00388_LB_00074_Cl_00566,19.1410843,14.989884337699106,-4.151199962300893,17.856120247099067,14.443119108883389,14.256954755400743
B_00388_LB_00074_Cl_00573,19.69651593,16.158144059449143,-3.538371870550858,19.940597513247404,16.703874422188235,16.615511106089425
B_00388_LB_00074_Cl_00578,18.08089168,14.392438241670597,-3.688453438329404,16.952688188639733,14.042931683687884,13.696811761648702
B_00388_LB_00074_Cl_00618,22.98583955,21.818259527485875,-1.1675800225141266,22.941986423053738,20.855087105386957,21.00184025959878
B_00388_LB_00074_Cl_00619,10.87059037,9.210074555891072,-1.660515814108928,12.451087725374125,10.581844886042006,10.666946612129859
B_00388_LB_00074_Cl_00621,11.85196272,8.351643464440215,-3.500319255559784,10.956846769801377,8.314312922232968,7.803308129173231
B_00388_LB_00075_Cl_00462,15.09371557,11.74987432109535,-3.343841248904651,14.86115427850628,11.521608848261087,11.52806663782063
B_00388_LB_00075_Cl_00490,17.80054978,15.860620801176871,-1.9399289788231293,19.26610317206646,16.35727115426631,16.43556107241244
B_00388_LB_00075_Cl_00493,19.9115037,15.69221749076752,-4.2192862092324805,20.374167951441393,16.077480718856798,16.43913719126934
B_00388_LB_00075_Cl_00494,14.1882519,10.93168682512691,-3.256565074873089,12.577620119822889,8.909904011145468,8.808890376749439
B_00388_LB_00075_Cl_00495,19.57860867,16.719034128861345,-2.859574541138656,19.614238963448976,15.188135713967554,14.91651675454353
B_00388_LB_00075_Cl_00496,16.40994075,11.452495568608192,-4.957445181391808,14.14069998754389,10.408840638383234,10.286997494192008
B_00388_LB_00075_Cl_00497,20.23236955,16.11712029880564,-4.11524925119436,19.756523287029673,16.243132619741093,16.32845966766405
B_00388_LB_00075_Cl_00498,18.20875108,13.712026707054427,-4.496724372945572,18.932723077273533,15.220976801846184,15.16959877507541
B_00388_LB_00075_Cl_00499,15.1546019,12.136014605642126,-3.0185872943578733,15.618229936425186,11.99031375885087,11.633143860283422
B_00388_LB_00075_Cl_00506,18.08270515,14.708816527507295,-3.3738886224927036,17.975452289183078,14.117064488975114,14.3601657689993
B_00388_LB_00076_Cl_00462,14.85948865,12.340982450267935,-2.518506199732064,14.837765298100686,11.761871155347885,12.094143349890949
B_00388_LB_00077_Cl_00462,18.04209963,14.164694684879462,-3.877404945120537,17.846058253771748,14.266577043428821,14.476314613883147
B_00388_LB_00077_Cl_00476,25.14031688,21.605890761723952,-3.5344261182760484,23.000923738615676,19.522611270146967,19.41433394708078
B_00388_LB_00078_Cl_00462,14.13340213,11.107794496242134,-3.0256076337578666,14.157260435092335,10.936265542456749,11.131395675199322
B_00388_LB_00078_Cl_00535,14.11733812,10.411401343963156,-3.705936776036843,13.742665625273276,10.24523010617086,10.139647765968547
B_00388_LB_00078_Cl_00566,12.8359392,8.981180414861715,-3.8547587851382854,12.746880604247153,10.125462215805907,9.879970622265116
B_00388_LB_00078_Cl_00577,16.96126852,13.846675542828056,-3.114592977171945,15.650314921249597,13.592151090651985,13.704727885428493
B_00388_LB_00079_Cl_00462,14.37157603,11.03049237057,-3.3410836594299997,14.422471012091961,11.439406063434037,11.344669695138068
B_00388_LB_00079_Cl_00465,9.24225925,7.144337510726721,-2.0979217392732794,10.137594069184846,8.3739872508202,8.348020392165235
B_00388_LB_00079_Cl_00475,20.86162655,17.562770916945198,-3.298855633054803,20.727227787863555,17.11378949539095,17.44548389907168
B_00388_LB_00079_Cl_00476,19.46048808,17.785119274677434,-1.6753688053225666,19.289439626875506,16.00497575244736,15.860596522117191
B_00388_LB_00079_Cl_00481,18.17766473,17.365701642514004,-0.8119630874859958,19.134083027327463,17.548008279905222,17.123137721184126
B_00388_LB_00079_Cl_00495,18.53146178,14.201986062067814,-4.329475717932187,19.156465327705885,15.819153633035405,15.81317832448198
B_00388_LB_00079_Cl_00496,13.8337144,10.25827238168192,-3.57544201831808,13.5560983902459,10.166140194714398,10.768467318424346
B_00388_LB_00079_Cl_00498,18.41320312,15.209696846600712,-3.2035062733992863,18.60680077157889,15.089745898931929,14.974928734301471
B_00388_LB_00079_Cl_00499,14.5795609,12.010362777431526,-2.5691981225684746,14.389109246189449,12.177351490475056,11.943848994298243
B_00388_LB_00079_Cl_00500,16.92706977,15.336200605223336,-1.590869164776663,17.02886070558889,14.456494030932465,14.469169781140053
B_00388_LB_00079_Cl_00501,17.7647258,15.306949540676555,-2.4577762593234453,18.88704637042789,15.571427780935293,15.264243114156978
B_00388_LB_00079_Cl_00504,15.83509428,12.74767153657305,-3.0874227434269503,16.861304570072207,13.897741437750158,13.54431362666771
B_00388_LB_00079_Cl_00509,14.73026757,10.813419885911363,-3.916847684088637,15.574591618906522,12.347950771302312,12.353649111345966
B_00388_LB_00079_Cl_00517,18.274055,15.28166467344872,-2.9923903265512806,17.87668999192012,14.82080228734818,14.99388820819455
B_00388_LB_00079_Cl_00519,11.5210757,9.084474149597597,-2.436601550402404,13.547372907528882,10.089151817144526,9.922997554038801
B_00388_LB_00079_Cl_00520,22.55198605,18.523518582814663,-4.028467467185337,17.918202047777726,15.134981100934237,15.110721051791089
B_00388_LB_00079_Cl_00535,14.18956338,10.780519595589965,-3.4090437844100343,13.881574754072002,11.168607327838906,11.124366767835816
B_00388_LB_00079_Cl_00538,13.00788675,9.63781828643372,-3.3700684635662803,11.556216484679785,8.411783503418672,8.657261762257804
B_00388_LB_00079_Cl_00540,12.9663086,9.67440368454882,-3.2919049154511804,13.331987677936608,10.673342174373609,10.617013473648413
B_00388_LB_00079_Cl_00562,17.85382452,14.73524607583814,-3.1185784441618605,18.08756200189767,14.674000699934325,15.039267336602187
B_00388_LB_00079_Cl_00572,12.6439242,11.149111671676655,-1.4948125283233455,13.519225379899172,10.990206993917987,10.993942834215009
B_00388_LB_00079_Cl_00575,14.53214073,10.634175637652184,-3.8979650923478157,14.144332992607172,11.220046932697354,11.014390612367716
B_00388_LB_00079_Cl_00609,11.87013513,9.715650938860229,-2.1544841911397707,13.307890565884867,9.819930281564348,10.179253735540597
B_00388_LB_00079_Cl_00618,15.80061315,13.32255909170629,-2.4780540582937096,15.003422387029765,13.493248956615695,13.057327889437248
B_00388_LB_00080_Cl_00462,16.73102623,13.302213816312907,-3.428812413687094,17.550409982840456,13.792937831823995,13.927354036403115
B_00388_LB_00080_Cl_00519,19.69243718,14.04646840864681,-5.645968771353189,16.28568885897413,12.832706251809164,13.235658253669946
B_00388_LB_00080_Cl_00537,12.29494008,10.030853809723398,-2.264086270276602,15.494128551235876,12.358157141877843,12.843745319523329
B_00388_LB_00081_Cl_00462,19.61313372,11.888851186692008,-7.724282533307992,18.16369828216293,14.01764384563269,12.580075392114487
B_00388_LB_00081_Cl_00538,17.18642808,10.314706881291478,-6.871721198708521,16.599328006569174,11.12213348328897,9.836548676730168
B_00388_LB_00082_Cl_00462,13.79817908,10.508852312670337,-3.289326767329664,14.661053977618769,11.180315877649388,11.043235233491641
B_00388_LB_00082_Cl_00497,20.23247623,17.236784796188918,-2.995691433811082,19.645048354624063,15.632612820216261,15.939810872668737
B_00388_LB_00083_Cl_00462,18.40977698,15.606105427713864,-2.8036715522861364,18.451280881973858,15.307329123484768,15.641737964802292
B_00388_LB_00083_Cl_00526,12.05764468,10.8892849268565,-1.1683597531434984,13.392148799615029,11.964867935858644,11.961020415982183
B_00388_LB_00083_Cl_00540,19.27430255,16.21699207437053,-3.057310475629471,17.726350048768992,14.6667949156073,14.781412937138349
B_00388_LB_00083_Cl_00571,16.95330555,15.597121174595454,-1.3561843754045455,17.089827457926468,13.932650945556457,13.575317401000444
B_00388_LB_00083_Cl_00573,19.5882659,15.917633460470809,-3.670632439529191,20.112288888346864,16.707190295261825,16.622584117148
B_00388_LB_00083_Cl_00575,19.4659787,15.259898076875924,-4.206080623124077,18.33757821798368,14.847229323351556,14.93048319374116
B_00388_LB_00083_Cl_00577,19.27939158,15.948488585995404,-3.330902994004594,18.46477297938881,15.675668109855724,15.631874179502878
B_00388_LB_00083_Cl_00578,15.7377753,12.981320009068847,-2.756455290931152,15.211654980743061,13.46758665379458,12.932255250302088
B_00388_LB_00083_Cl_00582,19.8629101,15.649069431483666,-4.213840668516335,20.004794975183145,16.300205629489145,16.516358689138478
B_00388_LB_00083_Cl_00583,21.9144084,19.291416051933908,-2.6229923480660915,21.16833527505662,17.42452796316296,17.724037877023697
B_00388_LB_00084_Cl_00462,14.50647597,10.824319111326975,-3.682156858673025,14.113903203296484,11.248909246949426,11.300678607447885
B_00388_LB_00084_Cl_00470,13.01441902,11.940261153368724,-1.0741578666312765,14.312185576434995,12.325632054307327,12.264404993499543
B_00388_LB_00084_Cl_00490,18.3848715,15.757793848509348,-2.6270776514906515,17.405655409156,15.059673212928546,14.991022893560052
B_00388_LB_00084_Cl_00493,19.6792785,15.947587486498463,-3.7316910135015355,20.136819191926904,16.157820280307917,16.41350781420637
B_00388_LB_00084_Cl_00498,18.73143348,14.761377623741891,-3.9700558562581083,17.755887324340247,14.946473733443856,15.07186309641517
B_00388_LB_00084_Cl_00499,14.33171095,11.445697333699846,-2.886013616300154,15.19858954538843,11.94676299975446,12.113716723631835
B_00388_LB_00084_Cl_00500,16.55048193,14.658913154980045,-1.8915687750199552,16.65370267546187,14.580287498057045,14.534606838951111
B_00388_LB_00084_Cl_00501,18.38888123,15.244193938242834,-3.1446872917571653,18.72173441827791,15.118009747373073,14.924427852191277
B_00388_LB_00084_Cl_00502,12.17848235,9.415191058621533,-2.763291291378467,13.001775708994625,9.485225054865543,9.630183404808864
B_00388_LB_00084_Cl_00503,15.95677908,12.844146901735003,-3.112632178264997,14.781948546114936,11.500120875395185,11.308380415154701
B_00388_LB_00084_Cl_00504,16.30079967,13.016533675350844,-3.2842659946491555,16.253650108091527,13.124776356591793,13.173768349918703
B_00388_LB_00084_Cl_00505,12.3467151,9.217257315349908,-3.129457784650093,14.016122477589823,9.273062356230302,8.851692279840655
B_00388_LB_00084_Cl_00506,17.4850616,14.559858987505065,-2.925202612494937,17.85267065606401,14.600784476265126,14.875012122697221
B_00388_LB_00084_Cl_00507,18.04376877,15.214511816771074,-2.829256953228926,17.953137910113263,15.056317639264536,14.98779129951032
B_00388_LB_00084_Cl_00508,19.44176347,16.828012612840084,-2.6137508571599177,20.20801233060536,17.188027466542867,16.966485617458588
B_00388_LB_00084_Cl_00515,16.49626592,13.404835592745298,-3.0914303272547006,16.578338208626004,13.158435150957914,13.141586675404664
B_00388_LB_00084_Cl_00518,15.52100542,11.426584322854108,-4.094421097145892,14.628113730886763,11.317543506832909,11.362668006947167
B_00388_LB_00084_Cl_00519,17.43776065,12.602642368295497,-4.835118281704505,13.91384374024867,10.340036667559406,9.956866265957858
B_00388_LB_00084_Cl_00520,17.95710475,14.81923949847792,-3.1378652515220793,18.45947071991652,15.279631167797723,15.446220002701455
B_00388_LB_00085_Cl_00462,15.23056078,12.420710740542,-2.8098500394579986,14.454662654244231,12.06481157082155,11.986845294516687
B_00388_LB_00085_Cl_00584,15.25212795,13.803872638212802,-1.4482553117871984,14.866152500861375,12.973248306679443,13.193872206300238
B_00388_LB_00085_Cl_00617,10.81440403,10.367174124974245,-0.44722990502575577,12.392717257782135,9.228631917680524,9.235106165012983
B_00388_LB_00086_Cl_00462,16.07255282,11.652081199189205,-4.420471620810794,15.802872034793939,11.978914538918172,11.974173615855733
B_00388_LB_00086_Cl_00505,13.4879619,8.940241113917196,-4.547720786082804,15.292967751570254,10.724711059419127,10.679654351515795
B_00388_LB_00086_Cl_00585,14.45546022,10.838905347661935,-3.6165548723380656,14.687969981054355,12.877066965298201,12.608839396804715
B_00388_LB_00087_Cl_00462,15.02149032,12.221198465941608,-2.8002918540583916,14.668990732772308,11.635770068754871,11.614629449451849
B_00388_LB_00087_Cl_00606,18.29100377,13.588930140740311,-4.702073629259688,19.364807914330477,14.608786396789498,15.191493623623185
B_00388_LB_00088_Cl_00462,17.55888697,13.931362798266283,-3.6275241717337163,18.591020118292946,14.961584477376318,15.213794011162205
B_00388_LB_00089_Cl_00462,17.77711265,15.841777813163253,-1.9353348368367467,18.143394609158165,15.024672341778953,15.111545907918428
B_00388_LB_00090_Cl_00462,19.68562253,16.038575729999017,-3.6470468000009824,19.564364853733924,15.718414285782991,15.76110839676669
B_00388_LB_00091_Cl_00462,15.75980055,12.762738219214492,-2.997062330785507,15.613471111297802,12.670122704527845,12.753138042098163
B_00388_LB_00091_Cl_00519,11.9839448,7.188974675621708,-4.794970124378292,14.292185561382684,10.470158756060037,10.977619535080521
B_00388_LB_00092_Cl_00462,15.33561683,12.520140648098456,-2.815476181901543,15.576988431592067,12.426209531032901,12.590514464150651
B_00388_LB_00092_Cl_00503,16.0159837,10.548663358161958,-5.467320341838041,16.081402602040708,12.342584981596477,12.119718024968424
B_00388_LB_00093_Cl_00462,13.91572237,10.644677780827214,-3.271044589172785,14.617852829849376,11.178006726460413,11.370443356084586
B_00388_LB_00093_Cl_00519,17.49802575,12.662287482108484,-4.835738267891516,14.897025356401077,9.930275904077394,10.103349560312619
B_00388_LB_00094_Cl_00462,13.865993,11.023394135515131,-2.8425988644848683,14.618890393752856,11.5643978133887,11.896774244780193
B_00388_LB_00095_Cl_00462,19.81863998,15.363302425323734,-4.455337554676266,19.789663096198648,15.475806889610025,15.418710818598539
B_00388_LB_00095_Cl_00515,22.11621867,16.357169285836775,-5.759049384163223,21.026890468030306,16.871386948774248,16.633434561673155
B_00388_LB_00095_Cl_00526,13.726186,11.768148379979923,-1.958037620020077,14.41430106939417,12.651643028608854,12.819359588655004
B_00388_LB_00095_Cl_00618,22.29114685,19.885774561483117,-2.405372288516883,22.35011265697235,18.86667699124915,19.340027948561662
B_00388_LB_00096_Cl_00462,15.0678061,12.538132723715682,-2.529673376284318,14.635234270668988,12.106471283125291,11.842369462319684
B_00388_LB_00097_Cl_00462,15.2713922,11.72497545949877,-3.546416740501229,15.094939232666349,12.233330410918137,12.332193212964494
B_00388_LB_00098_Cl_00462,13.0755689,10.99848019658627,-2.0770887034137306,14.138091778544823,10.786579917717312,10.675126477651812
B_00388_LB_00098_Cl_00555,19.04956342,16.235798530818304,-2.8137648891816944,18.037542532567166,14.717548863579799,14.798509511746584
B_00388_LB_00099_Cl_00462,16.25308458,14.119057614686838,-2.1340269653131614,16.365712718186725,13.457923277940314,13.538809295685157
B_00388_LB_00100_Cl_00462,14.51524843,11.648125326061164,-2.8671231039388356,14.597085593417631,11.883641033059583,11.809379495628104
B_00388_LB_00101_Cl_00462,15.3120542,11.974539814526082,-3.337514385473918,14.65086456301162,11.377521250468753,11.109938277498802
B_00388_LB_00102_Cl_00462,16.1056158,12.728263025466706,-3.3773527745332927,15.208303835429593,11.581731593001024,11.88480493551546
B_00388_LB_00103_Cl_00462,15.55689843,12.018767004836487,-3.538131425163513,14.642836661910081,11.138978470083664,11.053212310564113
B_00388_LB_00103_Cl_00519,17.78521995,12.929586589220037,-4.8556333607799615,15.857449034400975,10.703645276345956,11.14026175223252
B_00388_LB_00103_Cl_00560,18.18357578,15.722359588156175,-2.4612161918438265,19.428862686957096,15.433721682815113,15.636389981854714
B_00388_LB_00104_Cl_00462,14.7635439,10.916786852711036,-3.846757047288964,14.35639230427066,11.435499944641203,10.787984875052736
B_00388_LB_00104_Cl_00519,18.4881831,14.871250926268006,-3.6169321737319944,14.252328670684317,9.687754208954425,9.339848751907736
B_00388_LB_00104_Cl_00553,17.20260502,14.015788105655387,-3.186816914344613,18.362314188482205,14.168793969244742,14.105009784265116
B_00388_LB_00104_Cl_00561,15.02799123,11.43686035869349,-3.5911308713065093,14.380508294385894,12.46740757071104,11.986845977978888
B_00388_LB_00104_Cl_00603,18.7904122,12.905865233417035,-5.884546966582963,17.382226837207917,13.923322944922674,13.40664615113363
B_00388_LB_00105_Cl_00462,13.83246567,10.587880761071478,-3.2445849089285215,14.354369028810293,11.325049272853338,11.373617796772745
B_00388_LB_00105_Cl_00526,9.93584755,10.36988066727521,0.43403311727520943,9.776521019377661,8.61683540973598,8.39457034956462
B_00388_LB_00105_Cl_00562,17.82125727,14.947673887077414,-2.873583382922586,17.903631205573614,14.726437441404007,14.822352596571784
B_00388_LB_00106_Cl_00462,18.1534244,14.38123514201324,-3.772189257986758,17.52980722571915,13.708128061906617,13.942280863245077
B_00388_LB_00106_Cl_00526,14.0889814,12.25524006350384,-1.8337413364961606,12.589232870590632,11.11191597726609,11.434139731322801
B_00388_LB_00107_Cl_00462,14.9787262,11.286020613513593,-3.692705586486408,15.419947542810895,11.87279200789189,12.110574808512705
B_00388_LB_00107_Cl_00564,15.79723093,11.7172740991211,-4.079956830878899,14.665530577373966,11.954528114350012,11.50363619407044
B_00388_LB_00107_Cl_00606,20.49265655,15.22089174527538,-5.27176480472462,19.5618154140804,15.101421154282669,15.254770514560523
B_00388_LB_00108_Cl_00462,15.3444834,12.205247951545596,-3.1392354484544036,14.690455199670463,11.97112021091083,11.84435779984024
B_00388_LB_00108_Cl_00475,21.62128432,18.90539026318432,-2.7158940568156815,21.072848953895587,17.465823374630617,18.129683266708888
B_00388_LB_00108_Cl_00520,18.440468,16.167793239857264,-2.272674760142735,19.254734218670546,15.824048677391378,15.888389379114091
B_00388_LB_00109_Cl_00462,15.42868762,12.55556801055748,-2.8731196094425204,16.05823990547374,13.187709022746759,13.539526610603481
B_00388_LB_00109_Cl_00474,21.80225532,18.139455878836856,-3.662799441163145,20.900864859192968,17.009799960007477,16.565252754822122
B_00388_LB_00109_Cl_00566,15.1174288,10.973721350091688,-4.143707449908312,14.930837123613568,11.385769120342378,11.692755736613904
B_00388_LB_00110_Cl_00462,14.10244755,11.161387163268298,-2.941060386731703,14.883143130165921,11.341384098287488,11.335851784746712
B_00388_LB_00111_Cl_00462,19.29169685,16.555899385925816,-2.735797464074185,17.137989469842648,13.484223592758893,13.727295994780874
B_00388_LB_00112_Cl_00462,15.17466935,11.958612131502653,-3.2160572184973475,15.315546156043391,12.269927846348828,11.934283426730758
B_00388_LB_00113_Cl_00462,13.06248552,11.120485526333926,-1.941999993666073,15.81231187604374,12.693184670166684,12.781146202735789
B_00388_LB_00114_Cl_00462,20.42859508,17.52737112116524,-2.9012239588347626,20.713229717086566,16.78246509039523,16.733807449243326
B_00388_LB_00115_Cl_00462,16.28461645,12.707619540692631,-3.57699690930737,15.866118772793278,12.743070112711175,12.632450740506247
B_00388_LB_00116_Cl_00462,16.96751215,13.209143440636288,-3.7583687093637135,16.493270589807157,13.225668786864105,13.1845654879683
B_00388_LB_00117_Cl_00462,15.48681295,12.606374186741268,-2.8804387632587307,16.028798486974317,12.874860798856334,12.893550138292937
B_00388_LB_00118_Cl_00462,14.4228114,11.687417400809634,-2.735393999190366,15.176313232780576,12.057655967721129,12.085025901203359
B_00388_LB_00119_Cl_00462,14.43603282,11.236074282581514,-3.1999585374184853,12.224120317345625,9.241693795340904,9.784910546790776
B_00388_LB_00120_Cl_00462,17.15310782,12.609020758718724,-4.5440870612812745,15.583375056797315,12.27392007834084,12.207177972294435
B_00388_LB_00121_Cl_00462,15.61908995,12.774808890412762,-2.844281059587237,17.309627043747664,13.835108046617552,13.551188108006874
B_00388_LB_00122_Cl_00462,16.59883708,12.555446270726568,-4.043390809273431,14.618082409877978,11.205398583871197,11.45408956418764
B_00388_LB_00123_Cl_00462,16.7607509,12.817994177322626,-3.942756722677375,16.275850466614017,13.076618399101367,13.147333643189622
B_00388_LB_00124_Cl_00462,14.7742365,12.00293266500037,-2.77130383499963,15.807304685931484,12.279787618593476,12.209343735603383
B_00388_LB_00125_Cl_00462,15.0555322,11.711555030124352,-3.3439771698756484,14.863826690030272,11.372405052427673,11.25921630881334
B_00388_LB_00126_Cl_00462,14.92381995,12.25373438571112,-2.6700855642888808,15.298974708952551,12.313655214524571,12.00648291169327
B_00388_LB_00127_Cl_00462,15.48066345,12.315910473936093,-3.164752976063907,15.875696793448643,12.773500921302801,12.739975818463659
B_00388_LB_00127_Cl_00618,17.14341922,14.700901103625156,-2.442518116374842,16.59065041017235,14.596337329508492,14.149001699043977
B_00388_LB_00128_Cl_00519,11.65312052,7.956363787256631,-3.696756732743369,13.924904755375906,9.490668249036826,9.788507849883331
B_00388_LB_00128_Cl_00585,13.41394827,11.412133424741764,-2.0018148452582363,13.298981250152178,11.370693963879798,11.45435779089033
B_00388_LB_00129_Cl_00462,17.69795353,14.428544424871491,-3.269409105128508,15.78468711754508,12.388881929702848,12.400557777373459
B_00388_LB_00129_Cl_00489,10.42832837,7.264184051435889,-3.1641443185641105,11.555416935800519,10.282892218625255,10.495117982118472
B_00388_LB_00129_Cl_00519,9.3239472,6.733023102930089,-2.5909240970699106,16.255882105423733,12.183067249874085,12.236783072455783
B_00388_LB_00129_Cl_00586,15.31327155,14.573140126587488,-0.740131423412512,14.439004976873125,11.677503394560825,12.094418448264618
B_00388_LB_00130_Cl_00462,14.6334255,11.668191186982355,-2.9652343130176444,14.42215830817291,10.95092834660047,10.802065298608568
B_00388_LB_00131_Cl_00462,14.57006055,11.711494391349094,-2.8585661586509072,14.950838603432096,12.057242312380666,12.385823182576747
B_00388_LB_00131_Cl_00588,15.22552195,11.95631398126064,-3.2692079687393587,16.3974389499582,12.65342087436904,12.63024912521024
B_00388_LB_00132_Cl_00462,14.07815702,11.90041402774804,-2.177742992251961,15.249254398134042,11.917878205976919,12.133415743722686
B_00388_LB_00132_Cl_00499,15.45528735,12.055543735529584,-3.3997436144704167,15.684086259167696,11.732519309953908,11.626692508784362
B_00388_LB_00133_Cl_00462,18.23225095,15.285056641964813,-2.947194308035188,17.65985403247612,13.987541100782314,14.04899904905684
B_00388_LB_00134_Cl_00462,14.97266455,11.590729359626463,-3.381935190373536,20.41752558879321,15.375199926344242,15.560739137314842
B_00388_LB_00135_Cl_00462,14.9079693,10.555803708673318,-4.352165591326681,15.32451993810843,12.081060846011317,11.89902273990434
B_00388_LB_00136_Cl_00462,15.8652331,12.806645444929003,-3.058587655070996,15.287800150124689,11.832449475645799,11.933165605675683
B_00388_LB_00136_Cl_00584,15.596638,13.552222937732612,-2.0444150622673884,15.794405316535801,12.751383513566996,12.748928691812253
B_00388_LB_00136_Cl_00593,11.66811777,9.644171271410084,-2.0239464985899165,12.663604974192108,9.841488458850728,9.84821815110805
B_00388_LB_00136_Cl_00608,16.34890383,11.622221335969156,-4.726682494030845,19.281064327688853,13.170672063724412,13.233835362722441
B_00388_LB_00137_Cl_00444,9.531580675,7.485536614313703,-2.046044060686298,8.882407446082059,6.228731681533402,6.225519716539299
B_00388_LB_00137_Cl_00445,8.247803525,6.695168780290275,-1.5526347447097253,9.197785271811782,7.309786061365994,7.415628975153665
B_00388_LB_00137_Cl_00447,11.32159973,10.446100245112197,-0.8754994848878042,10.73855102955244,8.814850285717139,8.26816816176156
B_00388_LB_00137_Cl_00448,8.98907555,8.429866105243365,-0.559209444756636,8.02876981971322,7.111592676080823,7.348881599514277
B_00388_LB_00137_Cl_00502,18.65341013,13.220729741851851,-5.43268038814815,16.869976879863252,12.762225028177102,13.052007514809569
B_00388_LB_00137_Cl_00504,20.68502295,18.206890982238875,-2.4781319677611258,21.804556204210638,17.943925824850854,17.63778024070238
B_00388_LB_00137_Cl_00526,13.61198728,12.059234081645064,-1.5527531983549352,13.756840446085938,11.485520693209356,11.962866165297822
B_00388_LB_00137_Cl_00553,21.56409398,15.61225705062508,-5.9518369293749185,20.31376689210062,17.000348782482757,17.02166424223673
B_00388_LB_00137_Cl_00554,23.67573188,19.232044965028955,-4.443686914971046,23.620901271251604,19.11564024638759,19.357686174579015
B_00388_LB_00137_Cl_00555,22.49215392,20.220462165643063,-2.2716917543569366,23.991050639876523,19.532110361239155,19.746524862371146
B_00388_LB_00137_Cl_00557,21.78924097,18.856576192423116,-2.9326647775768855,21.645324179394905,17.90415556832432,18.198278048912115
B_00388_LB_00137_Cl_00558,26.06734772,21.30322799353627,-4.764119726463729,23.31310923284734,19.574908294131383,19.4413319498432
B_00388_LB_00137_Cl_00559,19.68340745,15.313412182843926,-4.3699952671560744,18.560070527294585,14.58278550153651,15.634095580166342
B_00388_LB_00138_Cl_00462,18.47434672,16.166769147521244,-2.307577572478756,19.96800261239252,16.977415266115017,17.832223310204004
B_00388_LB_00139_Cl_00462,18.59888665,15.11206455568368,-3.48682209431632,18.71566515048734,14.032926392133117,14.24103313857741
B_00388_LB_00140_Cl_00462,17.98127605,14.004083726326243,-3.9771923236737585,17.263862093329585,13.5181873091302,13.796810631594779
B_00388_LB_00141_Cl_00462,22.90637295,18.544576477354244,-4.361796472645757,22.465238246038755,18.959330974737377,19.22450692865872
B_00388_LB_00141_Cl_00464,19.9517641,16.846345862663387,-3.105418237336611,19.349561329672433,14.627032918230038,14.302786024170313
B_00388_LB_00141_Cl_00526,13.03818873,12.151736060671173,-0.8864526693288273,14.461812959758271,11.732526911178239,11.730818122019432
B_00388_LB_00142_Cl_00462,16.16041538,13.373827932167242,-2.7865874478327584,15.92483555195603,12.578561974988322,12.70987959925777
B_00388_LB_00143_Cl_00448,14.4681671,12.054498867970004,-2.4136682320299965,14.526754302516071,11.33755713519472,11.26377365499448
B_00388_LB_00143_Cl_00454,15.29922183,12.520440833442493,-2.778780996557508,14.696557646424383,12.465248117515513,12.73061228271032
B_00388_LB_00143_Cl_00457,17.85330997,13.389374318612942,-4.463935651387059,16.86602893580383,13.592520818390799,13.948738465789047
B_00388_LB_00143_Cl_00458,15.86807567,10.7246702207608,-5.1434054492392,15.72005037707952,12.009458622259341,11.992525908974992
B_00388_LB_00143_Cl_00461,18.88613105,13.869434743521769,-5.016696306478231,18.302365396094686,14.412106739071291,14.283881478503591
B_00388_LB_00143_Cl_00462,20.85889065,17.805999203105788,-3.052891446894211,21.003134575245067,17.056547727869468,17.16559489970789
B_00388_LB_00143_Cl_00471,15.99489343,13.659421173331747,-2.335472256668252,16.015419549375032,13.389184472844544,13.476197958034609
B_00388_LB_00143_Cl_00482,23.3273376,18.89353961270112,-4.433797987298881,22.678095553090948,18.686562848338014,18.99537680261477
B_00388_LB_00143_Cl_00489,23.44079588,20.95276577873598,-2.4880301012640196,23.036043331297723,21.070396720294106,21.0779738803228
B_00388_LB_00143_Cl_00496,22.48700215,19.094580839556865,-3.392421310443133,22.893379484742216,19.061157326581217,19.115545405737773
B_00388_LB_00143_Cl_00498,23.20488098,17.325244290287262,-5.879636689712736,21.77314640385732,17.971902811143714,18.252325103359663
B_00388_LB_00143_Cl_00504,21.06215045,17.487286995298966,-3.5748634547010347,21.94196144441171,18.24690624563457,18.35805527362029
B_00388_LB_00143_Cl_00509,22.8990061,19.145367634206888,-3.753638465793113,22.3814587632395,18.816777597163313,19.004312630310633
B_00388_LB_00143_Cl_00510,11.86686585,6.342410252170498,-5.524455597829502,10.772854101984464,5.6295688134974995,5.604233515949112
B_00388_LB_00143_Cl_00518,20.58939822,17.979566309916294,-2.609831910083706,22.2161689842711,17.638170468302796,17.61338040219725
B_00388_LB_00143_Cl_00526,8.2691699,7.848043467647924,-0.42112643235207603,8.779618062315746,6.439340924046077,6.519000235134785
B_00388_LB_00143_Cl_00531,18.35220385,12.880457354302452,-5.471746495697547,17.487690540758262,12.895884095647611,12.79591234514204
B_00388_LB_00143_Cl_00533,17.19767915,12.359302497634138,-4.838376652365861,15.533621705699746,12.51194806710024,12.429033271640792
B_00388_LB_00143_Cl_00537,17.20663985,12.311634462714332,-4.895005387285666,16.57224954083693,12.670034816352816,12.663244046206398
B_00388_LB_00143_Cl_00538,17.61577612,16.50724667463724,-1.108529445362759,19.970054654879885,15.222655498955618,15.256781878372013
B_00388_LB_00143_Cl_00540,18.72488865,16.587763224259742,-2.1371254257402583,20.4164982828349,16.118050814104695,16.010107725488858
B_00388_LB_00143_Cl_00541,15.6410399,10.424777414751052,-5.216262485248949,14.349704825764302,10.896251292810618,11.06753445979386
B_00388_LB_00143_Cl_00543,13.78472547,9.94100400818128,-3.8437214618187205,14.626782496109549,11.060812311280687,11.31464969131026
B_00388_LB_00143_Cl_00545,14.38479118,12.666017309038883,-1.7187738709611171,15.700243379329635,13.0815369207766,12.960501453246325
B_00388_LB_00143_Cl_00549,16.87458568,13.69626765685792,-3.1783180231420793,16.948574166904617,13.979014898767073,14.279214646513053
B_00388_LB_00143_Cl_00552,18.3171768,12.65277457925107,-5.664402220748929,13.949259911383873,11.159850937177348,11.215313198357064
B_00388_LB_00143_Cl_00557,10.42007047,8.848485889449734,-1.571584580550267,10.467600249001,9.024750530554797,8.831021456720496
B_00388_LB_00143_Cl_00566,8.6668794,8.985143457045597,0.3182640570455977,14.691454324841933,11.141697475707842,11.207435437929254
B_00388_LB_00143_Cl_00575,17.44066597,11.507656461605864,-5.933009508394138,16.076150324242057,12.077321042131809,11.86617295152939
B_00388_LB_00143_Cl_00582,7.9206564,8.351734907498143,0.43107850749814247,8.260055309323144,6.524831057550072,6.576692434922123
B_00388_LB_00143_Cl_00591,17.69073727,14.977119414796444,-2.7136178552035553,18.010499234417765,14.421948944322553,14.520799902542068
B_00388_LB_00143_Cl_00592,9.977984175,9.781090322349128,-0.1968938526508719,14.10901708780061,11.689422736034471,11.338156185199495
B_00388_LB_00143_Cl_00595,17.37272655,14.319339432486055,-3.053387117513944,16.342049757785293,13.007540074835296,12.73656441033785
B_00388_LB_00143_Cl_00602,14.46285217,12.858831264860656,-1.6040209051393433,14.483557941568453,12.950528092564358,12.882381637673259
B_00388_LB_00143_Cl_00608,21.98116813,17.105109591851328,-4.876058538148673,21.556819710260093,15.901790380061518,15.917614620345816
B_00388_LB_00143_Cl_00609,20.34670633,15.95603848483743,-4.39066784516257,20.723011626850735,16.164563295676903,15.971962823896042
B_00388_LB_00143_Cl_00610,10.08114517,8.846504079254194,-1.2346410907458054,14.447618338305086,10.629752826943385,10.689073379791115
B_00388_LB_00143_Cl_00613,14.41139717,11.165797030918515,-3.2456001390814855,14.330744614520881,11.744373264134069,11.811246270846159
B_00388_LB_00143_Cl_00617,24.29937902,22.492841160095534,-1.8065378599044664,24.231352590758682,22.29749031140069,22.196963787556708
B_00388_LB_00143_Cl_00621,13.44767012,10.526492217586494,-2.921177902413506,14.1987944010951,10.300315527689854,10.614903620172967
B_00388_LB_00143_Cl_00622,15.46840837,14.445622412054004,-1.022785957945997,16.37654512814828,11.994893379975288,11.821534086609685
B_00388_LB_00145_Cl_00462,29.549477,28.040079537008666,-1.509397462991334,32.56439064014221,30.30335093966117,30.35832204092918
B_00388_LB_00145_Cl_00503,33.07362995,29.46232832170713,-3.6113016282928676,31.41348809092112,29.22621657214603,29.095205086219043
B_00388_LB_00145_Cl_00510,19.54013665,15.241255816718695,-4.298880833281306,22.40015902880055,17.685059257530842,18.08824073906322
B_00388_LB_00145_Cl_00549,19.11637335,16.970656264659976,-2.1457170853400243,15.402097267264047,10.877347491336195,10.989069201195928
B_00388_LB_00146_Cl_00462,18.99469482,14.37743257412063,-4.617262245879369,17.84489194329511,14.464213512925012,14.35360924102359
B_00388_LB_00147_Cl_00462,15.24587805,11.368175075808896,-3.877702974191104,14.7438405474471,11.075653745940318,11.413932717641721
B_00388_LB_00148_Cl_00462,11.06539148,7.330998583067114,-3.734392896932887,18.4977191749823,14.416340188242854,14.1041482277129
B_00388_LB_00149_Cl_00462,20.47121488,15.13020144541563,-5.341013434584372,20.051625514682467,15.035335322249539,14.613856713720397
B_00388_LB_00150_Cl_00462,21.6661694,14.94904775602995,-6.717121643970051,20.942784299561954,16.42504878035198,15.865839303152093
B_00388_LB_00151_Cl_00462,17.6449988,14.132138144978612,-3.512860655021388,16.358043783169087,11.758356602915708,12.132264538218212
B_00388_LB_00152_Cl_00462,19.09421633,14.89649802012214,-4.1977183098778585,17.435096013104253,14.23928961221289,14.197161443570907
B_00388_LB_00153_Cl_00462,21.03326663,17.227287028662854,-3.805979601337146,20.74803785399925,16.801350664078782,16.71864410065211
B_00388_LB_00154_Cl_00462,20.5974616,16.420581578836398,-4.176880021163601,20.70143582622427,16.694168159141086,16.65508496879121
B_00388_LB_00155_Cl_00462,24.80865803,19.33083307536705,-5.4778249546329505,24.64675990408442,19.780098927937907,18.939044310849155
B_00388_LB_00156_Cl_00462,16.55609805,13.335712369024137,-3.2203856809758626,16.469536021203687,12.108021011897163,12.287121321252163
B_00388_LB_00156_Cl_00577,17.8229829,15.52145085585654,-2.3015320441434604,16.822243239508374,14.441094456967695,14.162444201163318
B_00388_LB_00157_Cl_00614,17.35251478,13.93856643046987,-3.4139483495301306,17.34628126476235,12.396062991271947,12.810599555364373
B_00388_LB_00158_Cl_00462,21.29380462,17.260908197682923,-4.0328964223170765,20.0721926146638,16.263925615280986,16.767584505180977
B_00388_LB_00158_Cl_00525,21.4989281,16.669735354390934,-4.829192745609067,21.020887725911585,15.830959241750499,15.430532725844387
B_00388_LB_00158_Cl_00526,14.42390325,9.236131613586412,-5.187771636413588,13.585444511441931,10.151591084724938,10.442959076392263
B_00388_LB_00158_Cl_00582,22.33842898,16.415064151912603,-5.923364828087397,21.68103925626137,16.694475432273006,16.500472890134304
B_00388_LB_00159_Cl_00462,19.2548626,13.569111878912947,-5.685750721087052,17.84454218722924,14.56194842982296,14.240533545215037
B_00388_LB_00159_Cl_00526,10.69350987,8.55662375739256,-2.1368861126074403,12.395124876015798,10.313255658804671,9.835106022704762
B_00388_LB_00159_Cl_00601,12.0821862,10.588757492470208,-1.4934287075297927,12.779311227911204,10.674334688354019,10.214033061744665
B_00388_LB_00160_Cl_00510,13.85380695,8.432207747082133,-5.421599202917866,13.490222831608849,8.642223501950735,8.882245307141673
B_00388_LB_00160_Cl_00526,10.58870482,10.46255351983272,-0.1261513001672796,9.978971077604733,8.675002377659442,8.581716542785763
B_00388_LB_00161_Cl_00462,16.41167265,15.489254918922324,-0.922417731077676,18.68410639787591,14.935733056448983,15.260824445267101
B_00388_LB_00162_Cl_00462,18.46749442,14.576527495056911,-3.89096692494309,17.55197776387694,14.427878733771887,13.764991852679907
B_00388_LB_00164_Cl_00462,19.53532372,15.537745855470645,-3.9975778645293563,19.639091199895322,15.595071771524937,15.330974959121049
B_00388_LB_00164_Cl_00559,19.70951773,14.92419141795219,-4.785326312047811,19.592095350050908,14.889555076670776,15.111510853358261
B_00388_LB_00165_Cl_00462,19.90123153,15.876389094627156,-4.024842435372845,19.155256579171947,15.485771693219448,15.368142232947973
B_00388_LB_00165_Cl_00563,17.34803442,12.174185675820024,-5.173848744179978,17.488162508547358,12.574618319320523,12.1966811696926
B_00388_LB_00166_Cl_00462,18.64091032,15.311353472304022,-3.3295568476959776,18.38391690311422,14.5869129601598,15.089296214737027
B_00388_LB_00167_Cl_00462,22.07611515,18.89984595358523,-3.1762691964147685,20.345493217496415,16.761235470448426,16.823747628727332
B_00388_LB_00167_Cl_00526,14.07146787,11.94105483366824,-2.1304130363317597,14.505916948983677,9.933488805461046,10.606990518451322
B_00388_LB_00168_Cl_00462,20.59611248,15.945999034618067,-4.6501134453819315,20.704481655748758,15.322640450708722,15.73488848860901
B_00388_LB_00169_Cl_00462,21.07188925,15.82509272501175,-5.246796524988252,21.5886961438863,15.932187748185417,16.563838983837933
B_00388_LB_00170_Cl_00462,18.53063347,14.965360174126936,-3.565273295873066,19.045505093502516,15.105657534447362,15.125867641768084
B_00388_LB_00170_Cl_00524,11.18926625,9.317911681549846,-1.871354568450153,13.32010717656524,9.138858167289246,8.914387218504498
B_00388_LB_00171_Cl_00462,20.6236158,16.893857261003966,-3.729758538996034,20.86629454838899,16.57340568284597,16.429144082093217
B_00388_LB_00172_Cl_00446,17.13836785,14.211406626413046,-2.9269612235869555,16.174530596818833,13.109962447077287,12.792325976028561
B_00388_LB_00172_Cl_00450,20.09313985,17.097742962218636,-2.9953968877813644,18.543851910911663,13.874020478682436,14.01487187462193
B_00388_LB_00172_Cl_00456,18.17547475,15.123058786783892,-3.0524159632161076,19.754188711944526,16.50097759974869,16.63727665304154
B_00388_LB_00172_Cl_00462,25.39895355,22.714683025801804,-2.6842705241981974,25.278044206160438,21.31880958944705,22.51967794520484
B_00388_LB_00172_Cl_00468,23.70683705,20.472393194850067,-3.2344438551499337,23.541727003527033,19.499971588427183,20.37182556715379
B_00388_LB_00172_Cl_00476,30.99974245,28.918692964066164,-2.0810494859338355,30.649402581642498,27.468460154016153,28.34635585893794
B_00388_LB_00172_Cl_00518,27.9434535,24.60437896887044,-3.3390745311295618,26.65429572757437,22.127673953979706,22.626606820333688
B_00388_LB_00172_Cl_00541,18.9768801,15.261576341419769,-3.71530375858023,18.86207252471835,15.5505209258232,15.15548714049232
B_00388_LB_00172_Cl_00549,12.36733475,9.643635068808363,-2.7236996811916363,12.584244317451997,10.397787450524557,9.664228564668157
B_00388_LB_00172_Cl_00552,23.2637342,18.98341378012992,-4.28032041987008,22.939983967017646,18.904150598379037,18.595673509551677
B_00388_LB_00172_Cl_00562,26.714683,23.321332254373388,-3.3933507456266128,26.907622446239507,23.425100730967777,23.65972152110104
B_00388_LB_00172_Cl_00604,21.70455985,17.29241210849324,-4.412147741506757,21.505384612355126,16.643766142473762,16.582641583096247
B_00388_LB_00172_Cl_00608,27.7094462,23.135965134047545,-4.573481065952453,26.69968345536361,21.770000099327966,23.008936643657165
B_00388_LB_00172_Cl_00619,15.53425823,14.211766960144152,-1.322491269855849,15.404328281006467,14.031163993575039,13.995853074479417
B_00388_LB_00173_Cl_00462,19.54366948,16.389429396921205,-3.1542400830787933,21.20268520813669,18.121493648181964,17.933801526541927
B_00388_LB_00174_Cl_00462,20.22579962,16.91724459353648,-3.3085550264635195,21.06603992056357,17.38965032200434,17.395987514618966
B_00388_LB_00175_Cl_00462,20.00007532,16.00061685108997,-3.9994584689100314,19.76168491941299,15.733169383823348,15.995821558785583
B_00388_LB_00176_Cl_00462,11.52399357,8.726381698541877,-2.7976118714581233,17.071541985308997,13.235009286634801,13.123176799193317
B_00388_LB_00177_Cl_00453,15.50514222,12.803443566041626,-2.701698653958374,16.287902975981144,13.869017631759082,13.782806212747921
B_00388_LB_00177_Cl_00462,23.7483148,19.38707858383456,-4.361236216165441,24.04505650977854,19.782225490719327,19.566609348267825
B_00388_LB_00177_Cl_00488,32.15895458,26.9605814303575,-5.198373149642499,31.021950971925037,26.33446588813639,26.069252259137357
B_00388_LB_00177_Cl_00526,16.19684175,11.579578105857284,-4.617263644142717,15.892508288524647,12.260282343363695,12.122129756161609
B_00388_LB_00178_Cl_00462,25.57399467,20.543240172861783,-5.0307544971382185,26.113167906749414,21.44261790166839,21.453814413768654
B_00388_LB_00178_Cl_00502,24.2055615,16.353118717422593,-7.852442782577409,24.066828124183033,17.026237983983417,17.120268113536365
B_00388_LB_00178_Cl_00531,19.509728,13.318273718307696,-6.1914542816923035,20.55726838432566,14.192053462464138,13.752250232987977
B_00388_LB_00179_Cl_00462,20.24341355,17.700025793691587,-2.5433877563084124,21.401323283637776,17.41683414291663,17.25309854079867
B_00388_LB_00180_Cl_00462,20.67641992,16.422655773486802,-4.253764146513198,20.317617978588743,16.824191281143857,16.30363674619368
B_00388_LB_00181_Cl_00462,19.40718195,16.238054208477944,-3.169127741522054,19.379768648957164,15.53654294422338,15.682242063221818
B_00388_LB_00182_Cl_00462,23.5672434,19.47324416868552,-4.093999231314477,23.271501819785144,19.132889836751566,18.987765126738807
B_00388_LB_00182_Cl_00543,14.63305527,10.429964579497712,-4.203090690502288,12.76692445791494,9.269571203872545,9.257185747049192
B_00388_LB_00182_Cl_00562,26.5012075,20.954658397279008,-5.546549102720991,26.146263861497232,21.098571338890373,21.512379663743356
B_00388_LB_00182_Cl_00604,19.86892783,13.674688960859196,-6.194238869140804,19.3815716389771,12.899066570420766,12.780393719257667
B_00388_LB_00182_Cl_00615,20.24856532,13.6859703669638,-6.5625949530362,21.890525140453484,15.96127783431551,16.053968817965224
B_00388_LB_00183_Cl_00444,12.2607978,8.844688264961134,-3.416109535038867,13.764708087935619,9.089687821027429,8.799362901265393
B_00388_LB_00183_Cl_00462,24.31841737,20.507699179883183,-3.810718190116816,24.512785486555494,20.567490108599888,20.592942040775597
B_00388_LB_00183_Cl_00502,22.41140723,16.725787946827403,-5.685619283172596,21.805598461039185,15.593518624953349,16.05657996152805
B_00388_LB_00183_Cl_00507,25.09944152,21.59427427138681,-3.5051672486131906,24.191825268884543,21.1435049511161,21.189399547839763
B_00388_LB_00183_Cl_00593,23.02877937,18.8059150960226,-4.2228642739774,21.83410212107224,18.180031467884078,18.23694365269048
B_00388_LB_00184_Cl_00462,22.50035535,20.800109222934616,-1.700246127065384,20.934710896852827,19.941702668600364,19.55558938511507
B_00388_LB_00185_Cl_00462,22.4037329,18.641197120908828,-3.7625357790911735,22.95059478993609,18.59539887762939,18.890280302337253
B_00388_LB_00185_Cl_00473,16.44516232,10.483577005871991,-5.96158531412801,15.198839031072609,9.804158124344472,10.107818327681336
B_00388_LB_00185_Cl_00482,22.5985842,19.84125701385288,-2.7573271861471227,23.35472378822461,19.30877445473642,19.649304675521783
B_00388_LB_00185_Cl_00484,26.86649407,23.41201912551084,-3.45447494448916,27.09497575812854,22.83411565549479,23.411498010436443
B_00388_LB_00185_Cl_00529,26.9433189,21.343833825875443,-5.5994850741245585,26.13385449770505,22.638703610568577,22.35463610086153
B_00388_LB_00185_Cl_00533,18.83367832,13.80434999052223,-5.029328329477771,18.583574030795038,13.73696879691601,13.74584881757517
B_00388_LB_00185_Cl_00621,10.42173963,5.434374590119529,-4.98736503988047,10.486358924007993,5.940638318139145,6.079198421567947
B_00388_LB_00186_Cl_00462,21.98282472,17.121547790024305,-4.861276929975695,21.92233675944737,18.354984807353304,17.330385901381185
B_00388_LB_00187_Cl_00462,23.46273328,17.56090494330268,-5.901828336697317,22.255962725227693,17.785304922620814,17.62353937617494
B_00388_LB_00188_Cl_00462,21.93603832,17.834739587565938,-4.1012987324340635,20.737259646246333,17.5271446412245,17.139587251563164
B_00388_LB_00188_Cl_00500,19.19824955,15.815169867402153,-3.383079682597847,18.36638413491445,15.263496115603306,14.24936312835453
B_00388_LB_00189_Cl_00462,21.47876653,17.699392058629112,-3.7793744713708897,21.49823669896573,17.506517351727894,17.45793595655052
B_00388_LB_00190_Cl_00462,22.7476782,19.62836028570869,-3.119317914291308,23.770889602299565,19.732029200924735,19.668970656507582
B_00388_LB_00190_Cl_00533,20.0738756,14.69260285699792,-5.38127274300208,18.990232005325137,14.318208967385925,13.988874086438736
B_00388_LB_00190_Cl_00606,28.71950157,22.486592220169054,-6.232909349830944,27.147582923407175,22.641809201824778,22.67486407692048
B_00388_LB_00191_Cl_00462,24.532991,20.21490216476337,-4.31808883523663,24.366693114711666,20.222509858932217,19.840628406088815
B_00388_LB_00192_Cl_00462,21.09121625,17.336728613088873,-3.7544876369111257,20.664768059941846,16.77601770125049,17.115649277226392
B_00388_LB_00192_Cl_00500,16.93239097,13.599439172321324,-3.3329517976786764,19.636269033213043,16.547332340521745,16.739020405024654
B_00388_LB_00192_Cl_00502,19.72274542,13.434012166370271,-6.288733253629728,18.74986151357759,13.555038318300612,13.200089881182826
B_00388_LB_00192_Cl_00533,17.43121582,12.63166493984014,-4.799550880159858,17.220002764245045,13.280958203793656,13.13886682428729
B_00388_LB_00193_Cl_00519,21.73143567,17.18576338581836,-4.5456722841816415,24.10385954552526,18.261389143036226,18.808592552730946
B_00388_LB_00193_Cl_00526,13.4171297,11.234244947799557,-2.1828847522004438,13.730808423057944,11.013248306641024,10.760625745834014
B_00388_LB_00194_Cl_00462,27.32936317,22.170553270403136,-5.158809899596864,27.21469179530763,22.071825614695648,22.406208552154272
B_00388_LB_00195_Cl_00472,21.89325538,15.066107593304826,-6.827147786695173,22.732239908094254,15.36153390702757,15.363674826454385
B_00388_LB_00195_Cl_00514,26.4838634,22.24340415411533,-4.240459245884672,26.7864484273994,23.313185151040194,23.535861081535867
B_00388_LB_00195_Cl_00526,13.25052218,10.81033467953406,-2.4401875004659406,12.769131528432261,10.241292089902005,10.423648487408151
B_00388_LB_00195_Cl_00616,19.23643293,12.700101910734604,-6.536331019265395,22.579362359259783,14.943999952312153,14.367627965890822
B_00388_LB_00196_Cl_00462,17.28805798,15.794339402905146,-1.493718577094855,18.378187659317188,14.711081200760702,15.4915932201812
B_00388_LB_00197_Cl_00462,18.66274733,14.621798011278836,-4.040949318721163,18.65067514977112,15.049412093491831,15.054307343341073
B_00388_LB_00199_Cl_00462,20.6826259,16.474845958615262,-4.207779941384739,20.109691440314144,16.351484375976877,16.231456190982687
B_00388_LB_00199_Cl_00510,12.41798655,8.490095722397774,-3.9278908276022264,12.55395645688533,8.06560990244564,8.181831270040801
B_00388_LB_00200_Cl_00462,23.59842388,19.76085931395273,-3.83756456604727,22.59331945704684,18.134977593125548,18.247083169311047
B_00388_LB_00201_Cl_00462,19.28700315,16.332904788660333,-2.9540983613396676,20.03643167981912,16.314311990565844,16.2101635569351
B_00388_LB_00202_Cl_00462,19.95582403,15.761958953241592,-4.1938650767584065,19.33656601766516,15.908517402576317,16.063454598420215
B_00388_LB_00203_Cl_00462,24.07864962,20.22984484461147,-3.8488047753885297,23.84804140394479,19.39353203724601,19.781917998190707
B_00388_LB_00203_Cl_00610,22.00136735,15.58897195361432,-6.412395396385678,21.077744771105362,14.731888773232491,14.113403143465575
B_00388_LB_00204_Cl_00462,21.18481415,17.488871404366055,-3.695942745633946,20.78485963526351,17.154745188981458,17.28503255172331
B_00388_LB_00205_Cl_00462,20.5980891,17.063645603082037,-3.5344434969179623,21.274004602194715,17.57009606839618,17.3923994883386
B_00388_LB_00206_Cl_00462,18.22731253,13.45313811956905,-4.774174410430948,21.430741502946887,17.10243321414091,17.321451192248006
B_00388_LB_00207_Cl_00462,24.59903537,20.38770772896489,-4.211327641035108,24.57639196814331,20.137240024234522,20.507791823718904
B_00388_LB_00208_Cl_00462,26.56532545,21.47096017717613,-5.094365272823868,26.246594193228464,22.13832451106442,22.024867598111932
B_00388_LB_00209_Cl_00462,24.9677983,20.022445820711496,-4.945352479288502,24.61075865323565,20.114227417092728,20.388193173572276
B_00388_LB_00210_Cl_00462,24.76175867,19.949614079046142,-4.8121445909538565,23.93243713459936,19.53297116535931,19.824309543397398
B_00388_LB_00210_Cl_00592,20.8637475,16.481440036302857,-4.382307463697142,20.415499842188318,16.284978914383117,16.487262335860677
B_00388_LB_00211_Cl_00462,22.90185495,19.34800616083292,-3.5538487891670805,23.4039131113586,19.283984956401497,18.901964060685483
B_00388_LB_00211_Cl_00488,29.52015393,24.864320381273465,-4.655833548726534,29.925169185215026,25.866792820994092,25.1601159372669
B_00388_LB_00211_Cl_00526,14.06790367,12.69901071904073,-1.3688929509592693,15.539656192523847,11.39241586490165,11.356177784663545
B_00388_LB_00212_Cl_00462,20.07468507,17.296911736729022,-2.7777733332709786,21.157641766372887,17.03719038929266,17.031410047280225
B_00388_LB_00213_Cl_00462,20.22429363,16.17222279523067,-4.052070834769328,20.277690223265964,16.040971641952734,16.129766762266605
B_00388_LB_00213_Cl_00520,23.77137542,20.179076427961515,-3.592298992038483,24.80873330655939,21.13277315542671,20.523149914616795
B_00388_LB_00214_Cl_00462,18.59770695,15.651703706089114,-2.9460032439108854,18.864050534686278,15.402240122483512,15.633332537664703
B_00388_LB_00215_Cl_00462,17.97102898,13.795353970013462,-4.175675009986538,18.02616911647077,14.172721952828987,14.049067869267617
B_00388_LB_00216_Cl_00462,19.59317295,15.56673288107691,-4.02644006892309,19.6147630110471,15.600179796657025,15.433350901456695
B_00388_LB_00217_Cl_00462,22.28576918,18.43552715496823,-3.8502420250317684,21.777971025301852,16.841331224936592,17.44072575713998
B_00388_LB_00217_Cl_00526,16.81026065,11.926414701145925,-4.883845948854075,14.19992078729878,10.909030829827536,11.111924464639646
B_00388_LB_00217_Cl_00533,19.18831622,13.890690787206385,-5.297625432793616,18.212148573787495,13.330849086230849,13.477108727455782
B_00388_LB_00218_Cl_00462,20.8181408,16.559277737145216,-4.2588630628547826,20.301859088291778,16.40574834779764,15.921292273202472
B_00388_LB_00219_Cl_00462,20.77123517,17.131965871147106,-3.639269298852895,20.25518722133089,15.93984547941576,16.806936975453738
B_00388_LB_00220_Cl_00462,24.73453145,19.87305851874012,-4.861472931259879,24.594793294670296,19.84628844477928,19.82937099300048
B_00388_LB_00221_Cl_00462,23.27710622,18.963059246216098,-4.314046973783903,21.743377093365414,17.603052802207635,17.667314448562177
B_00388_LB_00222_Cl_00462,24.32341855,19.846988870467147,-4.476429679532853,23.79541160723911,19.636644427859736,19.455297599677564
B_00388_LB_00223_Cl_00462,26.1055562,20.950569320764917,-5.154986879235082,25.53011706178825,21.652788380972787,20.98802665929902
B_00388_LB_00225_Cl_00462,10.68507627,8.896148562487628,-1.7889277075123715,11.690114750874027,8.057022899432347,8.30618565743648
B_00388_LB_00226_Cl_00462,17.96090112,15.528214721858031,-2.4326863981419677,18.800725881062842,14.85806324864347,14.79811803086955
B_00388_LB_00227_Cl_00462,15.33132472,10.63938518690037,-4.69193953309963,14.428882226929344,10.909185530921338,10.74955475336415
B_00388_LB_00228_Cl_00462,17.23176495,14.562596203180592,-2.669168746819407,17.36466175236231,14.305379906317205,14.645690254800202
B_00388_LB_00228_Cl_00572,17.46953098,11.582784212256108,-5.88674676774389,16.827587043696884,12.825356062050233,13.066231354456374
B_00388_LB_00228_Cl_00596,20.8274027,21.43458680353798,0.6071841035379784,21.52128993764475,18.895690460404595,19.421130922551736
B_00388_LB_00228_Cl_00604,12.75637847,8.342987091185417,-4.413391378814582,13.29830780871852,8.853046645407058,9.065549661144189
B_00388_LB_00228_Cl_00610,13.1192429,9.695531445993444,-3.423711454006556,14.430140663498035,10.88787837617279,10.367270895187263
B_00388_LB_00229_Cl_00462,13.83777432,9.735602695852476,-4.102171624147523,12.807250223483228,9.04544898336784,8.646909428295956
B_00388_LB_00230_Cl_00462,15.66736352,11.538572325281738,-4.1287911947182625,15.56257176955851,12.19797429353089,11.636214680651399
B_00388_LB_00230_Cl_00592,12.43241278,9.024526218581236,-3.4078865614187634,13.179079027279169,10.519081338550027,10.53935669396288
B_00388_LB_00231_Cl_00462,18.0598767,14.543051355953756,-3.5168253440462447,17.441704090281707,14.27966484520144,14.458837257718704
B_00388_LB_00231_Cl_00507,22.87059917,19.01590439385211,-3.8546947761478876,21.327375415510076,16.34405718762122,16.59986503880959
B_00388_LB_00232_Cl_00462,17.1263073,14.872640119173711,-2.253667180826289,18.99971849738479,15.403490104989492,15.803304338738549
B_00388_LB_00233_Cl_00462,17.40901487,13.933635283385406,-3.4753795866145936,17.2693949672219,13.887750129728964,13.59502032336459
B_00388_LB_00234_Cl_00462,18.30902558,14.052828734393357,-4.2561968456066435,17.493416485252602,13.95398771804238,14.218044062595636
B_00388_LB_00234_Cl_00510,9.66255875,6.577844311457093,-3.0847144385429077,8.967787427517418,6.34355879795471,6.829683632964651
B_00388_LB_00235_Cl_00462,30.37597607,24.335329110221696,-6.040646959778304,30.56065704128995,24.75778519299451,24.658335785945503
B_00388_LB_00236_Cl_00462,29.76512993,23.45728699532016,-6.30784293467984,30.06960317323831,23.75801236707474,23.604204572139185
B_00388_LB_00236_Cl_00512,23.34680892,15.56411693424847,-7.78269198575153,23.26248428797617,16.97428005834316,16.16562937774705
B_00388_LB_00236_Cl_00544,19.14703927,15.232261361114684,-3.9147779088853163,21.39850854169954,14.386831405448389,14.399195341345886
B_00388_LB_00236_Cl_00549,17.78145495,9.895531086767049,-7.885923863232952,17.472394185117043,12.081331335847437,11.924206548504715
B_00388_LB_00237_Cl_00462,23.98470033,18.973357449185343,-5.011342880814656,24.057113155934296,19.05789954811941,18.768403410587954
B_00388_LB_00238_Cl_00462,28.68884193,23.083663732459147,-5.605178197540852,29.365170914375014,23.728643679576347,23.233224592551643
B_00388_LB_00238_Cl_00514,22.28507265,19.04488024375839,-3.2401924062416114,22.58198755887225,18.51731837683483,18.806802162255565
B_00388_LB_00238_Cl_00549,14.4709783,11.338648830650593,-3.1323294693494077,14.878139719577963,9.59526750057255,9.369069877257843
B_00388_LB_00239_Cl_00462,24.24119723,18.393002083654988,-5.848195146345013,23.6174760235401,18.590139764096474,18.49378474462471
B_00388_LB_00240_Cl_00462,21.68398412,16.60385710942834,-5.080127010571662,20.80299767784239,16.679811982986816,16.633943954583046
B_00388_LB_00242_Cl_00462,22.60118832,17.897441717783362,-4.703746602216636,22.57384873805807,18.057478282598694,17.98388031721002
B_00388_LB_00243_Cl_00462,29.08400377,22.6132034096888,-6.470800360311198,28.64541636969296,22.32862398312936,22.231850469588224
B_00388_LB_00243_Cl_00602,18.43121865,14.744074383943092,-3.68714426605691,18.125388310147592,14.98748764153102,14.487063463831635
B_00388_LB_00244_Cl_00462,32.35233125,27.10087492888614,-5.25145632111386,30.05994866369595,23.93226790020637,25.063730634094462
B_00388_LB_00246_Cl_00462,27.56787592,22.370678043846155,-5.197197876153844,28.241373511746055,22.698473605569568,22.946973022911074
B_00388_LB_00246_Cl_00523,21.34413013,14.957282709978672,-6.386847420021327,19.725989104153854,14.853025329727034,14.593085854515117
B_00388_LB_00247_Cl_00462,29.24826445,23.098002322972864,-6.150262127027137,28.988026576276006,22.59521814568404,23.14598940645685
B_00388_LB_00248_Cl_00462,24.7879568,19.06204176122799,-5.725915038772008,24.809405229957306,19.412288008630984,19.22582735955283
B_00388_LB_00248_Cl_00497,28.46523858,23.65301897274286,-4.812219607257141,30.051713480552895,23.793943066142496,23.88631103796986
B_00388_LB_00249_Cl_00462,26.06902315,19.84993864031591,-6.219084509684091,25.186750267347648,19.997802849623994,19.824358244196432
B_00388_LB_00249_Cl_00526,12.17564605,9.126374912730183,-3.049271137269816,14.64269487119154,10.903847038052167,11.163189296143381
B_00388_LB_00250_Cl_00462,28.74902545,22.92179341858547,-5.827232031414532,28.311826710203682,22.59203493780383,23.006830179863393
B_00388_LB_00251_Cl_00462,23.68565892,18.766894384576727,-4.918764535423275,23.96602349276924,18.993532909717292,18.94592287402372
B_00388_LB_00252_Cl_00462,23.73540085,18.695900224262,-5.039500625738,23.599672658291347,18.79793258272052,18.727524646044827
B_00388_LB_00253_Cl_00462,26.88504925,20.859249846367234,-6.025799403632767,26.356150044975905,20.95021254960908,20.680836193209714
B_00388_LB_00254_Cl_00531,27.98663177,20.06373857461448,-7.9228931953855195,27.7393970001716,19.107389252575786,19.34655967316064
B_00388_LB_00255_Cl_00462,23.18399778,17.77893933038586,-5.405058449614138,24.068583915704057,18.62290311390169,18.08405816827146
B_00388_LB_00256_Cl_00462,28.03394527,21.48490490093761,-6.549040369062389,27.633134845880942,21.69172571942162,21.264873260746967
B_00388_LB_00256_Cl_00499,25.0198808,18.61363146056983,-6.406249339430168,25.340394529936308,18.3137149528606,17.48585376640984
B_00388_LB_00257_Cl_00462,22.76423165,17.65478873601229,-5.10944291398771,21.17100382248192,17.319626037554194,16.586706193655726
B_00388_LB_00259_Cl_00462,25.94199832,20.03667620094332,-5.905322119056681,25.90062779158803,20.060940846784163,19.880290383624505
B_00388_LB_00259_Cl_00536,16.86325302,12.136273864831605,-4.726979155168394,15.618628686175274,10.152055587952287,9.723179834548986
B_00388_LB_00259_Cl_00578,18.8178716,15.439820405300924,-3.3780511946990757,20.23799254492035,15.139074926240179,14.386256058827701
B_00388_LB_00260_Cl_00462,16.97384362,13.59193653708436,-3.3819070829156406,16.925220793024067,13.390010064933882,13.566841811451315
B_00388_LB_00260_Cl_00500,11.99387185,11.35968913064124,-0.6341827193587601,14.56821757548266,12.413119594920076,12.371157486768865
B_00388_LB_00261_Cl_00462,29.39946685,23.432983752554385,-5.9664830974456144,29.35684403065723,23.126786840864863,23.353975639339303
B_00388_LB_00262_Cl_00574,24.36312675,16.377451458885606,-7.985675291114394,24.331118542714552,17.155792374371348,17.283663251832184
B_00388_LB_00262_Cl_00576,25.0767825,18.21909050860521,-6.857691991394791,24.54440505844621,16.311085716334734,16.481808751184243
B_00388_LB_00262_Cl_00581,28.18937075,21.967852334710475,-6.221518415289523,28.217993801347234,20.96316383426437,21.704231428869967
B_00388_LB_00263_Cl_00462,29.4208395,23.635167566982187,-5.785671933017813,30.075614449193033,23.939791334813886,24.01815439369015
B_00388_LB_00264_Cl_00462,30.3470546,24.186467615178888,-6.160586984821112,30.327511375632998,24.239367806698148,24.32170290193131
B_00388_LB_00265_Cl_00462,19.9702126,15.920765664499262,-4.049446935500738,20.29112457443014,16.016828037700495,16.109986923311464
B_00388_LB_00266_Cl_00462,19.97418467,15.31741874658718,-4.65676592341282,19.540943265916752,15.386840236721401,14.869459440966569
B_00388_LB_00267_Cl_00462,24.11528308,18.43874040673816,-5.676542673261842,23.701510518470084,18.032867497098685,18.163105429537172
B_00388_LB_00267_Cl_00471,14.4274298,9.185454957027424,-5.241974842972576,13.808499625665881,9.805867199629121,9.47410159413791
B_00388_LB_00268_Cl_00462,22.4183913,16.87689645833561,-5.541494841664388,21.71586343635916,17.18177717497272,16.56251590665904
B_00388_LB_00269_Cl_00462,18.61463062,14.588340029522463,-4.026290590477537,17.933294031864794,14.208449658576898,13.914064296957985
B_00388_LB_00270_Cl_00462,24.0462267,19.337414768291666,-4.708811931708333,24.702541272907443,19.289279377853134,19.65927032067062
B_00388_LB_00271_Cl_00462,28.3054457,22.39634098431603,-5.90910471568397,28.730743746683157,22.694611770753497,22.658106032007545
B_00388_LB_00272_Cl_00462,24.93220023,19.450072240270625,-5.482127989729374,24.7333921524529,19.533297254285635,19.109517739018543
B_00388_LB_00272_Cl_00534,22.7407757,17.740346009367887,-5.000429690632114,23.294945333623573,17.009749087987775,16.515843507010768
B_00388_LB_00273_Cl_00502,27.62180327,21.84163777863409,-5.78016549136591,26.59606344950773,18.715813535686824,19.00805041524529
B_00388_LB_00273_Cl_00602,21.97523198,17.608242094891736,-4.366989885108264,22.376164065383065,18.18311438541592,18.420980052998075
B_00388_LB_00274_Cl_00462,27.76523723,20.651203335204976,-7.114033894795025,26.676597601937264,20.897155505779686,20.24656241842985
B_00388_LB_00275_Cl_00462,22.84153337,17.802893590045134,-5.038639779954867,22.73127988847844,17.945650134103776,17.595147369217536
B_00388_LB_00276_Cl_00462,23.4268089,18.206038713677295,-5.2207701863227065,23.629707779803198,18.314760797955934,18.216842609283304
B_00388_LB_00276_Cl_00553,20.9622399,16.968945652615933,-3.9932942473840676,20.972725901048126,16.280992345169086,15.522290897947368
B_00388_LB_00277_Cl_00462,24.39607677,18.62880369102916,-5.767273078970842,24.176314686753237,18.815978199342258,18.752452680535008
B_00388_LB_00278_Cl_00462,23.67740102,18.439556316232963,-5.237844703767038,23.473380378708768,18.342222708537353,18.510493658529942
B_00388_LB_00279_Cl_00462,28.19434682,22.12345597606668,-6.07089084393332,28.095411734996244,22.101408405905318,21.993788880425758
B_00388_LB_00279_Cl_00556,25.74690858,19.122057163923408,-6.6248514160765914,26.059963306592888,18.99767714729975,19.148319664332313
B_00388_LB_00280_Cl_00462,29.7551464,24.5048903084002,-5.250256091599802,30.24778818455671,23.96517962330332,24.535782497304304
B_00388_LB_00280_Cl_00523,24.3606795,19.029563216377177,-5.331116283622823,23.53319914044428,16.592778322812602,16.36233509979248
B_00388_LB_00281_Cl_00462,30.13170288,23.160136224544456,-6.971566655455543,29.08665070134824,23.23102125999196,22.67252919790733
B_00388_LB_00282_Cl_00462,27.28326702,20.01298063539281,-7.270286384607189,27.940957460913204,21.842343585174252,21.183137751201052
B_00388_LB_00283_Cl_00462,22.7422064,17.93202846999297,-4.810177930007029,23.15407465432621,17.956380480567024,18.540955449818817
B_00388_LB_00284_Cl_00462,28.98313315,22.77764218028273,-6.205490969717271,28.451032589143413,22.120789537528367,22.478674445953665
B_00388_LB_00285_Cl_00462,17.3658868,13.774623426711294,-3.5912633732887045,19.060273071604442,14.727861569121405,14.601430364144218
B_00388_LB_00287_Cl_00462,20.08393442,15.575582089178324,-4.508352330821674,20.743159740860367,16.01777330862114,16.208708248312004
B_00388_LB_00288_Cl_00565,27.73884959,18.684235691505737,-9.054613898494264,28.701864833637202,20.76086814665509,20.304661402592345
B_00388_LB_00288_Cl_00601,27.29729793,20.9465615884082,-6.350736341591798,26.254841577519723,21.292762724559843,21.49334528504242
B_00388_LB_00289_Cl_00462,25.46270755,19.597727118909862,-5.864980431090139,25.8262908709907,20.36517526875541,19.91390441919919
B_00388_LB_00290_Cl_00462,26.9921886,21.310905677310163,-5.681282922689835,27.309376704125974,21.529240985397095,21.26509934218593
B_00388_LB_00290_Cl_00489,24.91677,21.293900202446547,-3.6228697975534523,24.27188503109333,21.516648828877912,20.830629092746864
B_00388_LB_00291_Cl_00453,27.82158673,21.654134063009284,-6.167452666990716,25.748743793712997,21.619553695806182,21.41966999307742
B_00388_LB_00292_Cl_00611,24.74407572,19.140914358855245,-5.603161361144757,25.670543440016903,18.96605049577214,18.41031022324118
B_00388_LB_00293_Cl_00462,27.92917787,21.610722246932905,-6.318455623067095,29.19905643195846,23.12434911292436,22.567752873946866
B_00388_LB_00294_Cl_00462,25.41735812,19.294700685219244,-6.122657434780756,25.021510078436535,19.320037436351207,18.587643130076472
B_00388_LB_00294_Cl_00568,25.45668355,18.17915718652376,-7.277526363476241,24.677104464354922,19.10698651577393,18.428765490851802
B_00388_LB_00296_Cl_00597,22.30359645,16.539286489992566,-5.764309960007434,23.909670495228614,16.98349498862344,16.958228253966947
B_00388_LB_00297_Cl_00462,23.47501972,17.304078489871724,-6.170941230128275,22.504061543361715,17.64259144352135,17.24482721503481
B_00388_LB_00298_Cl_00462,30.12353283,24.050857001111567,-6.072675828888432,30.078002136028907,23.854401739919076,24.43376057461235
B_00388_LB_00298_Cl_00527,23.47664495,17.7064480670091,-5.770196882990902,24.77340922539378,17.962259260517435,17.973530512505242
B_00388_LB_00298_Cl_00552,27.4428842,21.123842581964748,-6.3190416180352535,26.294986064570633,19.167267534783853,18.55003111145146
B_00388_LB_00298_Cl_00575,28.21858715,21.282184803080355,-6.936402346919646,27.09965480159907,20.794320732198877,20.21446917775673
B_00388_LB_00300_Cl_00463,27.9831868,19.794587299564892,-8.188599500435107,27.436813882030478,19.995883024247988,19.235813136120633
B_00388_LB_00300_Cl_00533,25.4583778,18.69999723238057,-6.7583805676194295,26.56938903438192,19.841179068446095,19.669001376054126
B_00388_LB_00300_Cl_00566,21.31006942,16.256311782643245,-5.053757637356757,23.270681999151506,17.72378114287769,18.07549172652234
B_00388_LB_00300_Cl_00595,28.7174873,22.70508480759863,-6.0124024924013675,27.894110138153138,21.07309560479406,21.41179242393246
B_00388_LB_00300_Cl_00604,26.46392145,18.220070079771823,-8.243851370228178,26.50552336947204,18.978832589039826,18.81071182618683
B_00388_LB_00300_Cl_00605,29.371518,20.893843716553555,-8.477674283446444,29.31450330887506,21.961849944393805,21.490816700958153
B_00388_LB_00301_Cl_00488,37.6210095,30.57733209098668,-7.04367740901332,37.29677820453886,30.45457552975015,30.689524122647
B_00388_LB_00302_Cl_00545,29.5531165,23.351799706918356,-6.201316793081645,27.35179790037541,21.391642988536738,21.549025003925998
B_00388_LB_00303_Cl_00462,27.956129,22.41603050176568,-5.540098498234322,27.689500599739254,21.528841088707782,22.033845492625453
B_00388_LB_00303_Cl_00580,23.78720725,15.276955513197816,-8.510251736802186,21.264325891350605,14.688291434954014,14.15239607975888
B_00388_LB_00304_Cl_00462,29.18312368,23.58815783176357,-5.594965848236431,29.626256338555702,23.755218167886504,23.748045608992662
B_00388_LB_00304_Cl_00488,38.4332706,30.87295609164173,-7.560314508358271,35.04472653533702,28.395133419812748,28.813229313661243
B_00388_LB_00304_Cl_00491,21.17208217,14.020659795133817,-7.151422374866183,20.68725489696546,13.126146270529109,12.874988444042403
B_00388_LB_00304_Cl_00516,25.62619012,18.656429676748694,-6.969760443251307,27.868658153953625,19.862673227618888,19.86438568173949
B_00388_LB_00304_Cl_00540,29.24480693,22.99737954957184,-6.24742738042816,28.92791560595977,22.59653270304123,22.82374924088156
B_00388_LB_00305_Cl_00462,27.95686945,22.16336134338181,-5.793508106618191,27.892442474655944,21.964994692379207,22.189466409802403
B_00388_LB_00306_Cl_00444,21.52398418,16.089370788909925,-5.434613391090075,25.740416791282005,19.809843233004283,19.32221709702005
B_00388_LB_00306_Cl_00491,14.15084663,7.2071309831279216,-6.943715646872079,15.062252827599492,10.855575068642924,10.29409617369831
B_00388_LB_00306_Cl_00544,23.89254568,19.571308167144387,-4.321237512855614,27.077665803542224,20.363734413991757,20.94161159346453
B_00388_LB_00306_Cl_00549,26.4822821,20.60936078366153,-5.87292131633847,24.742720680449633,18.349047313725176,17.990692861831665
B_00388_LB_00307_Cl_00445,19.10569957,13.625292523019928,-5.480407046980071,17.68465443186605,12.574558346415792,12.757815687710197
B_00388_LB_00307_Cl_00462,30.76721605,24.91668588681394,-5.850530163186058,30.099480146749535,24.84835377503847,25.235068642145187
B_00388_LB_00308_Cl_00462,29.5517611,22.728669808019458,-6.823091291980543,29.97244940028404,24.11191500313916,23.33947260992463
B_00388_LB_00309_Cl_00453,26.04434357,20.300643610130532,-5.743699959869467,24.72854802480705,20.64650880278191,20.10435874356798
B_00388_LB_00309_Cl_00461,26.32941055,21.29173512675133,-5.037675423248668,27.21203446248239,19.70308375260993,19.23537974436692
B_00388_LB_00309_Cl_00463,25.8223529,19.940967172123944,-5.881385727876054,26.03220543785113,18.78091376496951,18.36386374624224
B_00388_LB_00309_Cl_00537,25.4922377,17.350256768991574,-8.141980931008426,25.42472115485743,18.92668937337314,18.30097835187198
B_00388_LB_00309_Cl_00545,23.11404407,17.330986098913908,-5.783057971086091,23.114573300097746,17.962790483221557,18.120312230694392
B_00388_LB_00309_Cl_00547,26.45226877,18.245272604231012,-8.206996165768988,26.61602584888852,20.306918234772503,20.042198907720845
B_00388_LB_00309_Cl_00586,19.31241062,14.961349352766938,-4.351061267233064,20.089818789948687,15.079770540034598,15.093642463470012
B_00388_LB_00309_Cl_00591,26.14648175,19.99190196113528,-6.154579788864719,26.591529237989782,20.352241212545934,20.389770426052774
B_00388_LB_00309_Cl_00597,20.91772505,16.496475755360375,-4.421249294639626,22.006174730419865,16.69436264463529,16.196685566060268
B_00388_LB_00309_Cl_00600,26.72453475,21.15053143578445,-5.574003314215549,26.316639779542616,20.827898414888885,20.673488442424812
B_00388_LB_00310_Cl_00462,14.7381427,11.396325484112692,-3.341817215887307,14.846923625630343,11.74056236746765,11.863347504204151
B_00388_LB_00310_Cl_00493,20.85216636,16.952614293292996,-3.8995520667070025,21.908651007684472,16.979632182978545,17.661571853165007
B_00388_LB_00311_Cl_00462,23.24509118,18.70997203147337,-4.535119148526629,23.85029790248855,18.057129555942385,18.77069503914244
B_00388_LB_00311_Cl_00621,9.605851575,6.194574890916782,-3.4112766840832185,12.756535100048593,7.05553399334168,8.176492613279672
B_00388_LB_00312_Cl_00462,27.84415163,22.05947934727876,-5.784672282721239,28.279012818118606,22.183003030174284,22.92377206522562
B_00388_LB_00312_Cl_00476,33.83865473,28.70940105509854,-5.129253674901463,33.030165093888655,28.643498023228233,28.932450609875197
B_00388_LB_00312_Cl_00501,31.4611181,24.767541591808413,-6.693576508191587,31.60468872910412,24.210747446272773,24.796612031306683
B_00388_LB_00313_Cl_00565,28.10731885,21.19521662661912,-6.912102223380877,29.970723918394885,21.112827760369676,20.072869530723377
B_00388_LB_00314_Cl_00462,17.58599497,13.450746515206696,-4.135248454793306,17.69112044366993,13.602179181654567,13.244134059902665
B_00388_LB_00315_Cl_00462,31.0626556,24.59271037931832,-6.46994522068168,31.0827952508471,24.382637130804,25.29169060261047
B_00388_LB_00315_Cl_00514,25.24537292,22.723850524516152,-2.5215223954838493,26.372099225986872,22.096208443414266,22.389035481873787
B_00388_LB_00316_Cl_00462,26.0767665,21.21289577165049,-4.863870728349511,26.086516621363494,20.461015157208738,20.837259354755318
B_00388_LB_00317_Cl_00462,29.09736953,22.764776806631616,-6.332592723368386,29.413440985846428,23.034326699301452,22.419613282020936
B_00388_LB_00318_Cl_00462,24.82604605,20.029584118783493,-4.7964619312165055,25.644860676865928,19.82541194716933,20.110465874820527
B_00388_LB_00319_Cl_00462,21.4834414,16.823684904187786,-4.659756495812214,21.48475483795724,16.951371853535285,16.961754442124356
B_00388_LB_00320_Cl_00462,23.68798067,18.983657595515755,-4.704323074484247,23.437635687963414,18.594994049597346,18.763454889969392
B_00388_LB_00321_Cl_00462,23.8077516,19.3243341080192,-4.4834174919807985,24.049111822576574,18.976055283612098,19.43395657137579
B_00388_LB_00322_Cl_00462,21.18632642,15.974474728950131,-5.211851691049869,19.462045391025708,15.224195003579899,15.458960053745642
B_00388_LB_00323_Cl_00462,23.10864757,17.616272030693803,-5.492375539306195,23.330903911413884,17.940646196351427,17.773433228647473
B_00388_LB_00324_Cl_00462,26.13437728,20.87252426911472,-5.261853010885279,27.51038016500176,21.62549811417636,21.278610850448548
B_00388_LB_00325_Cl_00462,27.59098675,20.57336894815688,-7.0176178018431195,26.735861528879955,20.631443498006007,19.88881765714554
B_00388_LB_00326_Cl_00462,26.59082705,20.399607826757325,-6.191219223242676,25.427781060712736,19.70174609418442,19.5077588577602
B_00388_LB_00326_Cl_00491,15.86190735,9.8159660957598,-6.0459412542402,17.609471418642983,10.669429710826709,10.925002345451654
B_00388_LB_00326_Cl_00498,30.1783324,24.14130824999852,-6.0370241500014785,29.95125366459922,23.39809549550816,23.12845925211291
B_00388_LB_00326_Cl_00533,20.82415225,14.33567460904658,-6.4884776409534215,20.85736744778779,14.15797909672782,13.684486238153841
B_00388_LB_00326_Cl_00561,24.1717016,17.727149982598807,-6.444551617401192,22.655059230909288,16.532712905090467,16.766279947376958
B_00388_LB_00326_Cl_00572,26.06586683,18.448288779842677,-7.617578050157324,25.33545035521273,18.44637308540059,18.195568899420284
B_00388_LB_00326_Cl_00597,12.3733964,8.920318989597897,-3.453077410402104,13.713844122631325,9.441122468742558,8.99979211771813
B_00388_LB_00326_Cl_00603,28.70467375,21.95881530636334,-6.74585844363666,28.56495970233883,21.97175805638437,21.97534657678408
B_00388_LB_00326_Cl_00604,20.6290123,12.928930394036094,-7.700081905963906,21.54596236882262,13.881725118235213,13.652297814530149
B_00388_LB_00329_Cl_00462,29.96063382,23.84655643284476,-6.114077387155241,30.70904502836946,23.691048965335238,23.47629309984725
B_00388_LB_00329_Cl_00605,24.64161125,18.40616191072989,-6.235449339270112,26.398467375821706,18.676429492009635,18.781612859041903
B_00388_LB_00330_Cl_00462,19.8144922,16.38427181305497,-3.430220386945031,19.82765768905561,15.313882269095881,15.850120056134127
B_00388_LB_00331_Cl_00462,25.92066333,21.082106197252617,-4.838557132747383,25.95196749169265,20.35636676243769,20.82247736153094
B_00388_LB_00331_Cl_00469,26.1375838,22.478701713842483,-3.6588820861575186,27.738453555769908,22.411019099724363,22.862723763012433
B_00388_LB_00332_Cl_00462,30.22174912,24.09539378723973,-6.126355332760269,29.73321658426883,23.651402551403017,23.873806269723463
B_00388_LB_00332_Cl_00551,27.71748447,22.00614175573312,-5.7113427142668804,28.5574246116452,20.78089447063759,21.03522433324939
B_00388_LB_00334_Cl_00462,10.58867972,9.338557005243956,-1.2501227147560439,12.314703432262062,9.372468796814712,9.247409199141043
B_00388_LB_00334_Cl_00517,15.8143554,13.237959189571251,-2.576396210428749,16.45628194634316,13.049957592907555,13.450479147359502
B_00388_LB_00334_Cl_00573,15.0701906,12.18159583336131,-2.8885947666386897,15.634671931548478,12.620388063941466,12.441925948838083
B_00388_LB_00334_Cl_00577,12.62097025,11.460313059957285,-1.1606571900427145,11.044124899062753,11.030807673291815,10.756391314871784
B_00388_LB_00335_Cl_00477,22.58713232,21.552841252265303,-1.0342910677346957,22.850847860729303,20.058748419190437,21.117055869260625
B_00388_LB_00336_Cl_00462,18.83013295,14.745648519755733,-4.084484430244267,19.175364764821985,14.745000925651285,14.563499335459172
B_00388_LB_00337_Cl_00462,17.739676,14.2772515465947,-3.4624244534052995,17.359847689621525,13.190963570209334,13.486480543867376
B_00388_LB_00338_Cl_00462,10.87709755,8.311139335072927,-2.5659582149270737,12.51827124841798,10.062717710047629,10.113879772590868
B_00388_LB_00338_Cl_00525,15.62178318,11.942035645001909,-3.679747534998091,12.519389683952904,10.24859768817802,11.707940767725187
B_00388_LB_00339_Cl_00447,15.15489055,10.436653373088586,-4.718237176911414,15.587989471499938,10.871320324199678,10.46196853660838
B_00388_LB_00339_Cl_00462,24.50539982,18.819028932475685,-5.6863708875243155,23.944079076206833,19.028026193469984,18.91963021604883
B_00388_LB_00339_Cl_00472,15.545685,8.437591863967222,-7.108093136032778,14.763306660357511,8.92346821136366,8.509617388343912
B_00388_LB_00339_Cl_00526,14.46185445,11.439538235400684,-3.022316214599316,13.84319759035432,10.045167596584342,9.938185652552438
B_00388_LB_00339_Cl_00562,27.02123558,20.35147723549712,-6.669758344502878,26.61717825641525,20.516406517293234,20.772769670138494
B_00388_LB_00339_Cl_00606,28.9338493,21.39311219394786,-7.540737106052138,29.521369158588417,21.45207493849192,21.317866982159114
B_00388_LB_00339_Cl_00614,21.1392702,15.062403972750618,-6.076866227249381,21.03998335323304,14.894672682999987,14.482883759282462
B_00388_LB_00340_Cl_00462,21.41309865,17.213664360388663,-4.199434289611336,21.514117681005267,16.996808423667343,17.117659036176228
B_00388_LB_00341_Cl_00462,22.6708471,17.75008195310097,-4.920765146899029,22.73070753687814,18.283376313836882,18.072316833412515
B_00388_LB_00342_Cl_00462,21.80739455,17.43726990878485,-4.370124641215153,20.840679347650696,16.267550776876654,16.459953807201455
B_00388_LB_00343_Cl_00462,14.60727757,11.395643677595892,-3.211633892404109,14.983002626928297,11.472718474942667,11.502357295024126
B_00388_LB_00343_Cl_00563,11.78951392,8.188555128820916,-3.6009587911790835,13.507784010347686,9.323511090584926,9.18256399100133
B_00388_LB_00343_Cl_00610,12.02722348,9.691882683783335,-2.3353407962166646,13.365615364864997,10.583349109423644,10.505710257390021
B_00388_LB_00344_Cl_00462,15.88862003,12.373209016060825,-3.5154110139391754,15.718017572728602,12.161590144825748,12.466244417860606
B_00388_LB_00345_Cl_00462,12.99895742,10.265086602859984,-2.7338708171400157,12.989327106853771,10.320959388081235,10.363604002701802
B_00388_LB_00345_Cl_00584,13.69009848,12.20762963086193,-1.482468849138069,13.897321723520133,11.856994863010943,11.437640203810576
B_00388_LB_00346_Cl_00462,13.6432807,11.035577603630124,-2.6077030963698764,14.678478286745797,11.957648667420614,11.101206162384395
B_00388_LB_00348_Cl_00462,14.91134525,11.709622570358908,-3.201722679641092,14.074432285884418,10.88804532341123,10.998493684590422
B_00388_LB_00349_Cl_00462,17.47330225,13.14289546944644,-4.3304067805535595,17.044886078185364,13.308860331557042,13.143276482572645
B_00388_LB_00349_Cl_00487,25.05564391,21.28908125088625,-3.766562659113749,24.91200014095888,21.827052364081577,21.302210875941295
B_00388_LB_00349_Cl_00498,21.81218238,16.87425197125702,-4.937930408742979,21.764688158158123,17.877162675826735,17.34090149478784
B_00388_LB_00349_Cl_00563,14.6360359,9.975740467615225,-4.660295432384775,14.562155784408816,9.837355320903004,9.680431535249667
